;FLAVOR:RepRap
;TIME:6666
;Filament used: 0m
;Layer height: 0.1

;Generated with Cura_SteamEngine master
M104 S215
M109 S215
G28 ;Home
G1 Z15.0 F6000 ;Move the platform down 15mm
;Prime the extruder
G92 E0
G1 F200 E3
G92 E0
;LAYER_COUNT:660
;LAYER:0
M107
G1 F1500 E-6.5
G0 F3600 X35.179 Y19.217 Z0.3
;TYPE:SKIRT
G1 F1500 E0
G1 F1800 X35.597 Y18.546 E0.01487
G1 X36.08 Y17.922 E0.02971
G1 X36.623 Y17.349 E0.04456
G1 X37.222 Y16.834 E0.05942
G1 X37.87 Y16.383 E0.07427
G1 X38.561 Y15.999 E0.08914
G1 X39.286 Y15.687 E0.10399
G1 X40.039 Y15.45 E0.11884
G1 X40.813 Y15.291 E0.1337
G1 X41.598 Y15.21 E0.14855
G1 X42 Y15.2 E0.15611
G1 X59 Y15.2 E0.47589
G1 X59.789 Y15.24 E0.49075
G1 X60.569 Y15.359 E0.50559
G1 X61.334 Y15.557 E0.52046
G1 X62.074 Y15.831 E0.5353
G1 X62.783 Y16.179 E0.55016
G1 X63.454 Y16.597 E0.56503
G1 X64.078 Y17.08 E0.57987
G1 X64.651 Y17.623 E0.59472
G1 X65.166 Y18.222 E0.60958
G1 X65.617 Y18.87 E0.62443
G1 X66.001 Y19.561 E0.6393
G1 X66.313 Y20.286 E0.65415
G1 X66.55 Y21.039 E0.669
G1 X66.709 Y21.813 E0.68386
G1 X66.79 Y22.598 E0.69871
G1 X66.8 Y23 E0.70627
G1 X66.8 Y53 E1.27059
G1 X66.76 Y53.789 E1.28545
G1 X66.641 Y54.569 E1.30029
G1 X66.443 Y55.334 E1.31515
G1 X66.169 Y56.074 E1.33
G1 X65.821 Y56.783 E1.34485
G1 X65.403 Y57.454 E1.35973
G1 X64.92 Y58.078 E1.37457
G1 X64.377 Y58.651 E1.38942
G1 X63.778 Y59.166 E1.40428
G1 X63.13 Y59.617 E1.41913
G1 X62.439 Y60.001 E1.434
G1 X61.714 Y60.313 E1.44885
G1 X60.961 Y60.55 E1.46369
G1 X60.187 Y60.709 E1.47856
G1 X59.402 Y60.79 E1.4934
G1 X59 Y60.8 E1.50097
G1 X42 Y60.8 E1.82075
G1 X41.211 Y60.76 E1.83561
G1 X40.431 Y60.641 E1.85045
G1 X39.666 Y60.443 E1.86531
G1 X38.926 Y60.169 E1.88016
G1 X38.217 Y59.821 E1.89501
G1 X37.546 Y59.403 E1.90988
G1 X36.922 Y58.92 E1.92473
G1 X36.349 Y58.377 E1.93958
G1 X35.834 Y57.778 E1.95444
G1 X35.383 Y57.13 E1.96929
G1 X34.999 Y56.439 E1.98416
G1 X34.687 Y55.714 E1.999
G1 X34.45 Y54.961 E2.01385
G1 X34.291 Y54.187 E2.02872
G1 X34.21 Y53.402 E2.04356
G1 X34.2 Y53 E2.05113
G1 X34.2 Y23 E2.61544
G1 X34.24 Y22.211 E2.6303
G1 X34.359 Y21.431 E2.64514
G1 X34.557 Y20.666 E2.66001
G1 X34.831 Y19.926 E2.67485
G1 X35.179 Y19.217 E2.68971
G0 F3600 X35.578 Y19.324
G1 F1800 X35.994 Y18.677 E2.70418
G1 X36.475 Y18.077 E2.71864
G1 X37.016 Y17.53 E2.73312
G1 X37.611 Y17.042 E2.74759
G1 X38.253 Y16.619 E2.76205
G1 X38.936 Y16.264 E2.77653
G1 X39.651 Y15.983 E2.79098
G1 X40.393 Y15.777 E2.80547
G1 X41.151 Y15.649 E2.81993
G1 X42 Y15.6 E2.83593
G1 X59 Y15.6 E3.1557
G1 X59.768 Y15.64 E3.17017
G1 X60.528 Y15.759 E3.18464
G1 X61.271 Y15.957 E3.1991
G1 X61.99 Y16.231 E3.21358
G1 X62.676 Y16.578 E3.22804
G1 X63.323 Y16.994 E3.24251
G1 X63.923 Y17.475 E3.25697
G1 X64.47 Y18.016 E3.27145
G1 X64.958 Y18.611 E3.28592
G1 X65.381 Y19.253 E3.30038
G1 X65.736 Y19.936 E3.31486
G1 X66.017 Y20.651 E3.32931
G1 X66.223 Y21.393 E3.3438
G1 X66.351 Y22.151 E3.35826
G1 X66.4 Y23 E3.37426
G1 X66.4 Y53 E3.93857
G1 X66.36 Y53.768 E3.95304
G1 X66.241 Y54.528 E3.96751
G1 X66.043 Y55.271 E3.98197
G1 X65.769 Y55.99 E3.99645
G1 X65.422 Y56.676 E4.01091
G1 X65.006 Y57.323 E4.02538
G1 X64.525 Y57.923 E4.03984
G1 X63.984 Y58.47 E4.05431
G1 X63.389 Y58.958 E4.06879
G1 X62.747 Y59.381 E4.08325
G1 X62.064 Y59.736 E4.09773
G1 X61.349 Y60.017 E4.11218
G1 X60.607 Y60.223 E4.12667
G1 X59.849 Y60.351 E4.14113
G1 X59 Y60.4 E4.15712
G1 X42 Y60.4 E4.4769
G1 X41.232 Y60.36 E4.49137
G1 X40.472 Y60.241 E4.50584
G1 X39.729 Y60.043 E4.5203
G1 X39.01 Y59.769 E4.53478
G1 X38.324 Y59.422 E4.54924
G1 X37.677 Y59.006 E4.56371
G1 X37.077 Y58.525 E4.57817
G1 X36.53 Y57.984 E4.59264
G1 X36.042 Y57.389 E4.60712
G1 X35.619 Y56.747 E4.62158
G1 X35.264 Y56.064 E4.63606
G1 X34.983 Y55.349 E4.65051
G1 X34.777 Y54.607 E4.665
G1 X34.649 Y53.849 E4.67946
G1 X34.6 Y53 E4.69545
G1 X34.6 Y23 E5.25977
G1 X34.64 Y22.232 E5.27424
G1 X34.759 Y21.472 E5.28871
G1 X34.957 Y20.729 E5.30317
G1 X35.231 Y20.01 E5.31764
G1 X35.578 Y19.324 E5.33211
G0 F3600 X35.977 Y19.434
G1 F1800 X36.392 Y18.811 E5.34619
G1 X36.871 Y18.237 E5.36025
G1 X37.408 Y17.716 E5.37432
G1 X37.998 Y17.257 E5.38838
G1 X38.634 Y16.862 E5.40247
G1 X39.308 Y16.538 E5.41653
G1 X40.013 Y16.288 E5.43061
G1 X40.741 Y16.114 E5.44468
G1 X41.483 Y16.019 E5.45876
G1 X42 Y16 E5.46849
G1 X59 Y16 E5.78827
G1 X59.747 Y16.04 E5.80234
G1 X60.485 Y16.159 E5.8164
G1 X61.207 Y16.357 E5.83048
G1 X61.903 Y16.63 E5.84455
G1 X62.566 Y16.977 E5.85862
G1 X63.189 Y17.392 E5.8727
G1 X63.763 Y17.871 E5.88677
G1 X64.284 Y18.408 E5.90084
G1 X64.743 Y18.998 E5.9149
G1 X65.138 Y19.634 E5.92898
G1 X65.462 Y20.308 E5.94305
G1 X65.712 Y21.013 E5.95712
G1 X65.886 Y21.741 E5.9712
G1 X65.981 Y22.483 E5.98527
G1 X66 Y23 E5.99501
G1 X66 Y53 E6.55932
G1 X65.96 Y53.747 E6.57339
G1 X65.841 Y54.485 E6.58746
G1 X65.643 Y55.207 E6.60154
G1 X65.37 Y55.903 E6.6156
G1 X65.023 Y56.566 E6.62968
G1 X64.608 Y57.189 E6.64376
G1 X64.129 Y57.763 E6.65782
G1 X63.592 Y58.284 E6.6719
G1 X63.002 Y58.743 E6.68596
G1 X62.366 Y59.138 E6.70004
G1 X61.692 Y59.462 E6.71411
G1 X60.987 Y59.712 E6.72818
G1 X60.259 Y59.886 E6.74226
G1 X59.517 Y59.981 E6.75633
G1 X59 Y60 E6.76606
G1 X42 Y60 E7.08584
G1 X41.253 Y59.96 E7.09991
G1 X40.515 Y59.841 E7.11397
G1 X39.793 Y59.643 E7.12806
G1 X39.097 Y59.37 E7.14212
G1 X38.434 Y59.023 E7.15619
G1 X37.811 Y58.608 E7.17028
G1 X37.237 Y58.129 E7.18434
G1 X36.716 Y57.592 E7.19841
G1 X36.257 Y57.002 E7.21247
G1 X35.862 Y56.366 E7.22656
G1 X35.538 Y55.692 E7.24062
G1 X35.288 Y54.987 E7.25469
G1 X35.114 Y54.259 E7.26877
G1 X35.019 Y53.517 E7.28285
G1 X35 Y53 E7.29258
G1 X35 Y23 E7.85689
G1 X35.04 Y22.253 E7.87097
G1 X35.159 Y21.515 E7.88503
G1 X35.357 Y20.793 E7.89911
G1 X35.63 Y20.097 E7.91317
G1 X35.977 Y19.434 E7.92725
G0 F3600 X36.375 Y19.547
G1 F1800 X36.789 Y18.95 E7.94092
G1 X37.265 Y18.402 E7.95457
G1 X37.799 Y17.909 E7.96824
G1 X38.384 Y17.479 E7.9819
G1 X39.013 Y17.115 E7.99557
G1 X39.678 Y16.822 E8.00924
G1 X40.371 Y16.604 E8.0229
G1 X41.083 Y16.464 E8.03655
G1 X42 Y16.4 E8.05384
G1 X59 Y16.4 E8.37362
G1 X59.725 Y16.44 E8.38728
G1 X60.442 Y16.559 E8.40095
G1 X61.141 Y16.757 E8.41462
G1 X61.814 Y17.03 E8.42828
G1 X62.453 Y17.375 E8.44194
G1 X63.05 Y17.789 E8.45561
G1 X63.598 Y18.265 E8.46926
G1 X64.091 Y18.799 E8.48293
G1 X64.521 Y19.384 E8.49659
G1 X64.885 Y20.013 E8.51026
G1 X65.178 Y20.678 E8.52393
G1 X65.396 Y21.371 E8.53759
G1 X65.536 Y22.083 E8.55124
G1 X65.6 Y23 E8.56853
G1 X65.6 Y53 E9.13285
G1 X65.56 Y53.725 E9.14651
G1 X65.441 Y54.442 E9.16018
G1 X65.243 Y55.141 E9.17385
G1 X64.97 Y55.814 E9.18751
G1 X64.625 Y56.453 E9.20117
G1 X64.211 Y57.05 E9.21483
G1 X63.735 Y57.598 E9.22849
G1 X63.201 Y58.091 E9.24216
G1 X62.616 Y58.521 E9.25582
G1 X61.987 Y58.885 E9.26949
G1 X61.322 Y59.178 E9.28316
G1 X60.629 Y59.396 E9.29682
G1 X59.917 Y59.536 E9.31047
G1 X59 Y59.6 E9.32776
G1 X42 Y59.6 E9.64754
G1 X41.275 Y59.56 E9.6612
G1 X40.558 Y59.441 E9.67487
G1 X39.859 Y59.243 E9.68854
G1 X39.186 Y58.97 E9.7022
G1 X38.547 Y58.625 E9.71586
G1 X37.95 Y58.211 E9.72953
G1 X37.402 Y57.735 E9.74318
G1 X36.909 Y57.201 E9.75685
G1 X36.479 Y56.616 E9.77051
G1 X36.115 Y55.987 E9.78418
G1 X35.822 Y55.322 E9.79785
G1 X35.604 Y54.629 E9.81151
G1 X35.464 Y53.917 E9.82516
G1 X35.4 Y53 E9.84245
G1 X35.4 Y23 E10.40677
G1 X35.44 Y22.275 E10.42043
G1 X35.559 Y21.558 E10.4341
G1 X35.757 Y20.859 E10.44777
G1 X36.03 Y20.186 E10.46143
G1 X36.375 Y19.547 E10.47509
G0 F3600 X36.774 Y19.665
G1 F1800 X37.185 Y19.094 E10.48832
G1 X37.659 Y18.573 E10.50157
G1 X38.189 Y18.109 E10.51482
G1 X38.768 Y17.709 E10.52806
G1 X39.389 Y17.377 E10.5413
G1 X40.043 Y17.117 E10.55454
G1 X40.723 Y16.933 E10.56779
G1 X41.419 Y16.827 E10.58104
G1 X42 Y16.8 E10.59198
G1 X59 Y16.8 E10.91176
G1 X59.703 Y16.84 E10.925
G1 X60.397 Y16.959 E10.93825
G1 X61.072 Y17.157 E10.95148
G1 X61.721 Y17.429 E10.96472
G1 X62.335 Y17.774 E10.97796
G1 X62.906 Y18.185 E10.9912
G1 X63.427 Y18.659 E11.00445
G1 X63.891 Y19.189 E11.0177
G1 X64.291 Y19.768 E11.03094
G1 X64.623 Y20.389 E11.04418
G1 X64.883 Y21.043 E11.05742
G1 X65.067 Y21.723 E11.07067
G1 X65.173 Y22.419 E11.08391
G1 X65.2 Y23 E11.09486
G1 X65.2 Y53 E11.65917
G1 X65.16 Y53.703 E11.67242
G1 X65.041 Y54.397 E11.68566
G1 X64.843 Y55.072 E11.69889
G1 X64.571 Y55.721 E11.71213
G1 X64.226 Y56.335 E11.72538
G1 X63.815 Y56.906 E11.73861
G1 X63.341 Y57.427 E11.75186
G1 X62.811 Y57.891 E11.76511
G1 X62.232 Y58.291 E11.77835
G1 X61.611 Y58.623 E11.7916
G1 X60.957 Y58.883 E11.80484
G1 X60.277 Y59.067 E11.81809
G1 X59.581 Y59.173 E11.83133
G1 X59 Y59.2 E11.84227
G1 X42 Y59.2 E12.16205
G1 X41.297 Y59.16 E12.17529
G1 X40.603 Y59.041 E12.18854
G1 X39.928 Y58.843 E12.20177
G1 X39.279 Y58.571 E12.21501
G1 X38.665 Y58.226 E12.22826
G1 X38.094 Y57.815 E12.24149
G1 X37.573 Y57.341 E12.25474
G1 X37.109 Y56.811 E12.26799
G1 X36.709 Y56.232 E12.28123
G1 X36.377 Y55.611 E12.29447
G1 X36.117 Y54.957 E12.30771
G1 X35.933 Y54.277 E12.32096
G1 X35.827 Y53.581 E12.33421
G1 X35.8 Y53 E12.34515
G1 X35.8 Y23 E12.90946
G1 X35.84 Y22.297 E12.92271
G1 X35.959 Y21.603 E12.93595
G1 X36.157 Y20.928 E12.94919
G1 X36.429 Y20.279 E12.96242
G1 X36.774 Y19.665 E12.97567
G0 F3600 X37.172 Y19.786
G1 F1800 X37.582 Y19.242 E12.98849
G1 X38.053 Y18.751 E13.00128
G1 X38.578 Y18.317 E13.0141
G1 X39.15 Y17.948 E13.0269
G1 X39.762 Y17.649 E13.03971
G1 X40.404 Y17.424 E13.05251
G1 X41.069 Y17.275 E13.06533
G1 X42 Y17.2 E13.0829
G1 X59 Y17.2 E13.40268
G1 X59.68 Y17.24 E13.41549
G1 X60.35 Y17.359 E13.42829
G1 X61.002 Y17.556 E13.4411
G1 X61.626 Y17.828 E13.45391
G1 X62.214 Y18.172 E13.46672
G1 X62.758 Y18.582 E13.47954
G1 X63.249 Y19.053 E13.49234
G1 X63.683 Y19.578 E13.50515
G1 X64.052 Y20.15 E13.51795
G1 X64.351 Y20.762 E13.53076
G1 X64.576 Y21.404 E13.54356
G1 X64.725 Y22.069 E13.55638
G1 X64.8 Y23 E13.57395
G1 X64.8 Y53 E14.13827
G1 X64.76 Y53.68 E14.15108
G1 X64.641 Y54.35 E14.16388
G1 X64.444 Y55.002 E14.17669
G1 X64.172 Y55.626 E14.1895
G1 X63.828 Y56.214 E14.20231
G1 X63.418 Y56.758 E14.21512
G1 X62.947 Y57.249 E14.22792
G1 X62.422 Y57.683 E14.24074
G1 X61.85 Y58.052 E14.25354
G1 X61.238 Y58.351 E14.26635
G1 X60.596 Y58.576 E14.27915
G1 X59.931 Y58.725 E14.29197
G1 X59 Y58.8 E14.30954
G1 X42 Y58.8 E14.62932
G1 X41.32 Y58.76 E14.64213
G1 X40.65 Y58.641 E14.65493
G1 X39.998 Y58.444 E14.66774
G1 X39.374 Y58.172 E14.68055
G1 X38.786 Y57.828 E14.69336
G1 X38.242 Y57.418 E14.70618
G1 X37.751 Y56.947 E14.71897
G1 X37.317 Y56.422 E14.73179
G1 X36.948 Y55.85 E14.74459
G1 X36.649 Y55.238 E14.7574
G1 X36.424 Y54.596 E14.7702
G1 X36.275 Y53.931 E14.78302
G1 X36.2 Y53 E14.80059
G1 X36.2 Y23 E15.36491
G1 X36.24 Y22.32 E15.37772
G1 X36.359 Y21.65 E15.39052
G1 X36.556 Y20.998 E15.40333
G1 X36.828 Y20.374 E15.41614
G1 X37.172 Y19.786 E15.42895
G0 F3600 X37.57 Y19.912
G1 F1800 X37.978 Y19.397 E15.44131
G1 X38.445 Y18.935 E15.45367
G1 X38.965 Y18.534 E15.46602
G1 X39.529 Y18.198 E15.47837
G1 X40.131 Y17.934 E15.49073
G1 X40.76 Y17.744 E15.50309
G1 X41.407 Y17.633 E15.51544
G1 X42 Y17.6 E15.52661
G1 X59 Y17.6 E15.84639
G1 X59.656 Y17.64 E15.85875
G1 X60.302 Y17.759 E15.87111
G1 X60.929 Y17.956 E15.88347
G1 X61.527 Y18.228 E15.89583
G1 X62.088 Y18.57 E15.90819
G1 X62.603 Y18.978 E15.92055
G1 X63.065 Y19.445 E15.93291
G1 X63.466 Y19.965 E15.94526
G1 X63.802 Y20.529 E15.95761
G1 X64.066 Y21.131 E15.96997
G1 X64.256 Y21.76 E15.98233
G1 X64.367 Y22.407 E15.99468
G1 X64.4 Y23 E16.00585
G1 X64.4 Y53 E16.57017
G1 X64.36 Y53.656 E16.58253
G1 X64.241 Y54.302 E16.59489
G1 X64.044 Y54.929 E16.60725
G1 X63.772 Y55.527 E16.61961
G1 X63.43 Y56.088 E16.63197
G1 X63.022 Y56.603 E16.64433
G1 X62.555 Y57.065 E16.65668
G1 X62.035 Y57.466 E16.66904
G1 X61.471 Y57.802 E16.68138
G1 X60.869 Y58.066 E16.69375
G1 X60.24 Y58.256 E16.70611
G1 X59.593 Y58.367 E16.71846
G1 X59 Y58.4 E16.72963
G1 X42 Y58.4 E17.04941
G1 X41.344 Y58.36 E17.06177
G1 X40.698 Y58.241 E17.07413
G1 X40.071 Y58.044 E17.08649
G1 X39.473 Y57.772 E17.09885
G1 X38.912 Y57.43 E17.11121
G1 X38.397 Y57.022 E17.12357
G1 X37.935 Y56.555 E17.13592
G1 X37.534 Y56.035 E17.14828
G1 X37.198 Y55.471 E17.16062
G1 X36.934 Y54.869 E17.17299
G1 X36.744 Y54.24 E17.18535
G1 X36.633 Y53.593 E17.1977
G1 X36.6 Y53 E17.20887
G1 X36.6 Y23 E17.77319
G1 X36.64 Y22.344 E17.78555
G1 X36.759 Y21.698 E17.7979
G1 X36.956 Y21.071 E17.81027
G1 X37.228 Y20.473 E17.82263
G1 X37.57 Y19.912 E17.83498
G0 F3600 X37.967 Y20.044
G1 F1800 X38.373 Y19.559 E17.84688
G1 X38.836 Y19.129 E17.85877
G1 X39.35 Y18.76 E17.87067
G1 X39.906 Y18.46 E17.88255
G1 X40.495 Y18.232 E17.89443
G1 X41.109 Y18.08 E17.90633
G1 X42 Y18 E17.92316
G1 X59 Y18 E18.24294
G1 X59.631 Y18.04 E18.25483
G1 X60.252 Y18.159 E18.26673
G1 X60.852 Y18.356 E18.27861
G1 X61.424 Y18.627 E18.29051
G1 X61.956 Y18.967 E18.30239
G1 X62.441 Y19.373 E18.31429
G1 X62.871 Y19.836 E18.32617
G1 X63.24 Y20.35 E18.33807
G1 X63.54 Y20.906 E18.34996
G1 X63.768 Y21.495 E18.36184
G1 X63.92 Y22.109 E18.37374
G1 X64 Y23 E18.39057
G1 X64 Y53 E18.95488
G1 X63.96 Y53.631 E18.96678
G1 X63.841 Y54.252 E18.97867
G1 X63.644 Y54.852 E18.99055
G1 X63.373 Y55.424 E19.00245
G1 X63.033 Y55.956 E19.01433
G1 X62.627 Y56.441 E19.02623
G1 X62.164 Y56.871 E19.03811
G1 X61.65 Y57.24 E19.05002
G1 X61.094 Y57.54 E19.0619
G1 X60.505 Y57.768 E19.07378
G1 X59.891 Y57.92 E19.08568
G1 X59 Y58 E19.10251
G1 X42 Y58 E19.42229
G1 X41.369 Y57.96 E19.43418
G1 X40.748 Y57.841 E19.44607
G1 X40.148 Y57.644 E19.45795
G1 X39.576 Y57.373 E19.46986
G1 X39.044 Y57.033 E19.48174
G1 X38.559 Y56.627 E19.49363
G1 X38.129 Y56.164 E19.50552
G1 X37.76 Y55.65 E19.51742
G1 X37.46 Y55.094 E19.52931
G1 X37.232 Y54.505 E19.54119
G1 X37.08 Y53.891 E19.55308
G1 X37 Y53 E19.56991
G1 X37 Y23 E20.13423
G1 X37.04 Y22.369 E20.14612
G1 X37.159 Y21.748 E20.15802
G1 X37.356 Y21.148 E20.16989
G1 X37.627 Y20.576 E20.1818
G1 X37.967 Y20.044 E20.19368
G0 F3600 X38.365 Y20.181
G1 F1800 X38.767 Y19.728 E20.20507
G1 X39.225 Y19.331 E20.21647
G1 X39.732 Y18.998 E20.22788
G1 X40.278 Y18.734 E20.23929
G1 X40.854 Y18.545 E20.25069
G1 X41.45 Y18.433 E20.2621
G1 X42 Y18.4 E20.27246
G1 X59 Y18.4 E20.59224
G1 X59.605 Y18.44 E20.60365
G1 X60.199 Y18.559 E20.61504
G1 X60.773 Y18.755 E20.62645
G1 X61.316 Y19.026 E20.63787
G1 X61.819 Y19.365 E20.64928
G1 X62.272 Y19.767 E20.66067
G1 X62.669 Y20.225 E20.67207
G1 X63.002 Y20.732 E20.68348
G1 X63.266 Y21.278 E20.69489
G1 X63.455 Y21.854 E20.70629
G1 X63.567 Y22.45 E20.7177
G1 X63.6 Y23 E20.72807
G1 X63.6 Y53 E21.29238
G1 X63.56 Y53.605 E21.30379
G1 X63.441 Y54.199 E21.31518
G1 X63.245 Y54.773 E21.32659
G1 X62.974 Y55.316 E21.33801
G1 X62.635 Y55.819 E21.34942
G1 X62.233 Y56.272 E21.36081
G1 X61.775 Y56.669 E21.37221
G1 X61.268 Y57.002 E21.38362
G1 X60.722 Y57.266 E21.39503
G1 X60.146 Y57.455 E21.40643
G1 X59.55 Y57.567 E21.41784
G1 X59 Y57.6 E21.42821
G1 X42 Y57.6 E21.74799
G1 X41.395 Y57.56 E21.75939
G1 X40.801 Y57.441 E21.77079
G1 X40.227 Y57.245 E21.7822
G1 X39.684 Y56.974 E21.79361
G1 X39.181 Y56.635 E21.80502
G1 X38.728 Y56.233 E21.81641
G1 X38.331 Y55.775 E21.82781
G1 X37.998 Y55.268 E21.83922
G1 X37.734 Y54.722 E21.85063
G1 X37.545 Y54.146 E21.86204
G1 X37.433 Y53.55 E21.87344
G1 X37.4 Y53 E21.88381
G1 X37.4 Y23 E22.44812
G1 X37.44 Y22.395 E22.45953
G1 X37.559 Y21.801 E22.47093
G1 X37.755 Y21.227 E22.48233
G1 X38.026 Y20.684 E22.49375
G1 X38.365 Y20.181 E22.50516
G0 F3600 X38.761 Y20.326
G1 F1800 X39.16 Y19.906 E22.51606
G1 X39.613 Y19.544 E22.52697
G1 X40.111 Y19.249 E22.53785
G1 X40.645 Y19.024 E22.54875
G1 X41.205 Y18.876 E22.55965
G1 X42 Y18.8 E22.57467
G1 X59 Y18.8 E22.89445
G1 X59.578 Y18.84 E22.90535
G1 X60.145 Y18.959 E22.91625
G1 X60.69 Y19.155 E22.92714
G1 X61.203 Y19.424 E22.93804
G1 X61.674 Y19.761 E22.94893
G1 X62.094 Y20.16 E22.95983
G1 X62.456 Y20.613 E22.97074
G1 X62.751 Y21.111 E22.98162
G1 X62.976 Y21.645 E22.99252
G1 X63.124 Y22.205 E23.00342
G1 X63.2 Y23 E23.01844
G1 X63.2 Y53 E23.58276
G1 X63.16 Y53.578 E23.59366
G1 X63.041 Y54.145 E23.60456
G1 X62.845 Y54.69 E23.61545
G1 X62.576 Y55.203 E23.62635
G1 X62.239 Y55.674 E23.63724
G1 X61.84 Y56.094 E23.64814
G1 X61.387 Y56.456 E23.65905
G1 X60.889 Y56.751 E23.66993
G1 X60.355 Y56.976 E23.68083
G1 X59.795 Y57.124 E23.69173
G1 X59 Y57.2 E23.70675
