;FLAVOR:RepRap
;TIME:6666
;Filament used: 0m
;Layer height: 0.1

;Generated with Cura_SteamEngine master
M104 S215
M109 S215
G28 ;Home
G1 Z15.0 F6000 ;Move the platform down 15mm
;Prime the extruder
G92 E0
G1 F200 E3
G92 E0
;LAYER_COUNT:660
;LAYER:0
M107
G1 F1500 E-6.5
G0 F3600 X35.179 Y19.22 Z0.3
;TYPE:SKIRT
G1 F1500 E0
G1 F1800 X35.596 Y18.55 E0.01484
G1 X36.079 Y17.925 E0.0297
G1 X36.623 Y17.352 E0.04457
G1 X37.222 Y16.838 E0.05941
G1 X37.87 Y16.386 E0.07427
G1 X38.56 Y16.003 E0.08912
G1 X39.286 Y15.691 E0.10398
G1 X40.039 Y15.454 E0.11883
G1 X40.812 Y15.294 E0.13368
G1 X41.598 Y15.213 E0.14854
G1 X41.999 Y15.203 E0.15609
G1 X58.999 Y15.201 E0.47587
G1 X59.788 Y15.241 E0.49073
G1 X60.568 Y15.36 E0.50557
G1 X61.333 Y15.558 E0.52044
G1 X62.073 Y15.832 E0.53528
G1 X62.783 Y16.18 E0.55015
G1 X63.453 Y16.597 E0.565
G1 X64.078 Y17.08 E0.57986
G1 X64.65 Y17.624 E0.5947
G1 X65.165 Y18.223 E0.60956
G1 X65.617 Y18.871 E0.62443
G1 X66 Y19.561 E0.63927
G1 X66.312 Y20.286 E0.65412
G1 X66.549 Y21.039 E0.66897
G1 X66.709 Y21.813 E0.68383
G1 X66.79 Y22.598 E0.69868
G1 X66.8 Y23.001 E0.70626
G1 X66.8 Y52.999 E1.27054
G1 X66.76 Y53.788 E1.2854
G1 X66.641 Y54.568 E1.30024
G1 X66.443 Y55.333 E1.31511
G1 X66.169 Y56.073 E1.32995
G1 X65.821 Y56.782 E1.34481
G1 X65.403 Y57.453 E1.35968
G1 X64.92 Y58.077 E1.37452
G1 X64.377 Y58.65 E1.38937
G1 X63.778 Y59.165 E1.40423
G1 X63.13 Y59.616 E1.41908
G1 X62.439 Y60 E1.43395
G1 X61.714 Y60.312 E1.4488
G1 X60.961 Y60.549 E1.46365
G1 X60.187 Y60.708 E1.47851
G1 X59.402 Y60.789 E1.49336
G1 X59 Y60.799 E1.50092
G1 X42.002 Y60.8 E1.82066
G1 X41.214 Y60.76 E1.8355
G1 X40.433 Y60.641 E1.85036
G1 X39.669 Y60.443 E1.86521
G1 X38.928 Y60.169 E1.88007
G1 X38.219 Y59.821 E1.89493
G1 X37.549 Y59.404 E1.90977
G1 X36.924 Y58.921 E1.92463
G1 X36.351 Y58.377 E1.93949
G1 X35.837 Y57.778 E1.95434
G1 X35.385 Y57.13 E1.9692
G1 X35.001 Y56.44 E1.98406
G1 X34.69 Y55.714 E1.99891
G1 X34.453 Y54.961 E2.01376
G1 X34.293 Y54.188 E2.02861
G1 X34.212 Y53.402 E2.04347
G1 X34.202 Y53.001 E2.05102
G1 X34.2 Y23.004 E2.61528
G1 X34.24 Y22.215 E2.63014
G1 X34.359 Y21.434 E2.645
G1 X34.557 Y20.67 E2.65985
G1 X34.831 Y19.929 E2.67471
G1 X35.179 Y19.22 E2.68956
G0 F3600 X35.578 Y19.327
G1 F1800 X35.994 Y18.68 E2.70403
G1 X36.475 Y18.08 E2.7185
G1 X37.016 Y17.533 E2.73297
G1 X37.611 Y17.045 E2.74745
G1 X38.253 Y16.622 E2.76191
G1 X38.935 Y16.267 E2.77637
G1 X39.651 Y15.986 E2.79084
G1 X40.392 Y15.78 E2.80531
G1 X41.151 Y15.652 E2.81978
G1 X41.999 Y15.603 E2.83576
G1 X58.999 Y15.601 E3.15554
G1 X59.767 Y15.641 E3.17001
G1 X60.527 Y15.76 E3.18448
G1 X61.27 Y15.958 E3.19894
G1 X61.989 Y16.232 E3.21342
G1 X62.676 Y16.578 E3.22789
G1 X63.323 Y16.995 E3.24236
G1 X63.923 Y17.476 E3.25683
G1 X64.47 Y18.017 E3.2713
G1 X64.957 Y18.611 E3.28575
G1 X65.381 Y19.253 E3.30022
G1 X65.735 Y19.936 E3.31469
G1 X66.017 Y20.652 E3.32917
G1 X66.223 Y21.393 E3.34364
G1 X66.351 Y22.151 E3.3581
G1 X66.4 Y23.001 E3.37411
G1 X66.4 Y52.999 E3.93839
G1 X66.36 Y53.767 E3.95286
G1 X66.241 Y54.527 E3.96733
G1 X66.043 Y55.27 E3.98179
G1 X65.769 Y55.989 E3.99626
G1 X65.422 Y56.675 E4.01073
G1 X65.006 Y57.322 E4.02519
G1 X64.525 Y57.922 E4.03966
G1 X63.984 Y58.469 E4.05413
G1 X63.389 Y58.957 E4.06861
G1 X62.747 Y59.38 E4.08307
G1 X62.064 Y59.735 E4.09755
G1 X61.349 Y60.016 E4.112
G1 X60.607 Y60.222 E4.12648
G1 X59.849 Y60.35 E4.14095
G1 X59 Y60.399 E4.15694
G1 X42.002 Y60.4 E4.47668
G1 X41.234 Y60.36 E4.49115
G1 X40.474 Y60.241 E4.50562
G1 X39.731 Y60.043 E4.52008
G1 X39.012 Y59.769 E4.53456
G1 X38.326 Y59.422 E4.54902
G1 X37.679 Y59.006 E4.56349
G1 X37.079 Y58.525 E4.57795
G1 X36.532 Y57.984 E4.59242
G1 X36.044 Y57.389 E4.6069
G1 X35.621 Y56.747 E4.62136
G1 X35.266 Y56.065 E4.63582
G1 X34.985 Y55.349 E4.65029
G1 X34.779 Y54.608 E4.66476
G1 X34.651 Y53.849 E4.67924
G1 X34.602 Y53 E4.69524
G1 X34.6 Y23.003 E5.2595
G1 X34.64 Y22.235 E5.27396
G1 X34.759 Y21.476 E5.28841
G1 X34.957 Y20.732 E5.3029
G1 X35.231 Y20.013 E5.31737
G1 X35.578 Y19.327 E5.33183
G0 F3600 X35.976 Y19.437
G1 F1800 X36.391 Y18.815 E5.3459
G1 X36.87 Y18.24 E5.35997
G1 X37.408 Y17.72 E5.37405
G1 X37.998 Y17.26 E5.38812
G1 X38.634 Y16.866 E5.40219
G1 X39.308 Y16.541 E5.41627
G1 X40.013 Y16.291 E5.43034
G1 X40.74 Y16.117 E5.4444
G1 X41.482 Y16.022 E5.45847
G1 X41.999 Y16.003 E5.4682
G1 X58.999 Y16.001 E5.78798
G1 X59.746 Y16.041 E5.80206
G1 X60.485 Y16.16 E5.81614
G1 X61.206 Y16.358 E5.8302
G1 X61.903 Y16.631 E5.84428
G1 X62.566 Y16.977 E5.85835
G1 X63.188 Y17.392 E5.87241
G1 X63.763 Y17.871 E5.88649
G1 X64.283 Y18.409 E5.90057
G1 X64.743 Y18.999 E5.91464
G1 X65.137 Y19.634 E5.9287
G1 X65.461 Y20.308 E5.94276
G1 X65.712 Y21.013 E5.95684
G1 X65.886 Y21.741 E5.97092
G1 X65.981 Y22.483 E5.98499
G1 X66 Y23.001 E5.99474
G1 X66 Y52.999 E6.55902
G1 X65.96 Y53.746 E6.57309
G1 X65.841 Y54.484 E6.58715
G1 X65.643 Y55.206 E6.60124
G1 X65.37 Y55.902 E6.6153
G1 X65.023 Y56.565 E6.62938
G1 X64.608 Y57.188 E6.64346
G1 X64.129 Y57.762 E6.65752
G1 X63.592 Y58.283 E6.67159
G1 X63.002 Y58.742 E6.68565
G1 X62.366 Y59.137 E6.69974
G1 X61.692 Y59.461 E6.7138
G1 X60.987 Y59.711 E6.72788
G1 X60.259 Y59.885 E6.74195
G1 X59.517 Y59.98 E6.75603
G1 X59 Y59.999 E6.76576
G1 X42.002 Y60 E7.0855
G1 X41.255 Y59.96 E7.09957
G1 X40.517 Y59.841 E7.11363
G1 X39.795 Y59.643 E7.12772
G1 X39.099 Y59.37 E7.14178
G1 X38.436 Y59.024 E7.15585
G1 X37.814 Y58.609 E7.16991
G1 X37.239 Y58.13 E7.18399
G1 X36.719 Y57.592 E7.19806
G1 X36.259 Y57.002 E7.21214
G1 X35.865 Y56.366 E7.22621
G1 X35.54 Y55.692 E7.24028
G1 X35.29 Y54.987 E7.25436
G1 X35.116 Y54.26 E7.26842
G1 X35.021 Y53.518 E7.28249
G1 X35.002 Y53 E7.29224
G1 X35 Y23.003 E7.8565
G1 X35.04 Y22.256 E7.87057
G1 X35.159 Y21.518 E7.88463
G1 X35.357 Y20.796 E7.89871
G1 X35.63 Y20.1 E7.91278
G1 X35.976 Y19.437 E7.92685
G0 F3600 X36.375 Y19.551
G1 F1800 X36.788 Y18.953 E7.94052
G1 X37.265 Y18.405 E7.95418
G1 X37.799 Y17.913 E7.96784
G1 X38.384 Y17.482 E7.98151
G1 X39.012 Y17.118 E7.99516
G1 X39.677 Y16.825 E8.00883
G1 X40.37 Y16.607 E8.0225
G1 X41.083 Y16.467 E8.03617
G1 X41.999 Y16.403 E8.05344
G1 X58.999 Y16.401 E8.37322
G1 X59.724 Y16.441 E8.38688
G1 X60.441 Y16.56 E8.40055
G1 X61.14 Y16.758 E8.41421
G1 X61.813 Y17.031 E8.42788
G1 X62.452 Y17.376 E8.44154
G1 X63.049 Y17.789 E8.45519
G1 X63.598 Y18.266 E8.46887
G1 X64.09 Y18.8 E8.48253
G1 X64.521 Y19.384 E8.49618
G1 X64.885 Y20.013 E8.50985
G1 X65.178 Y20.678 E8.52352
G1 X65.395 Y21.371 E8.53718
G1 X65.536 Y22.083 E8.55083
G1 X65.6 Y23.001 E8.56814
G1 X65.6 Y52.999 E9.13242
G1 X65.56 Y53.724 E9.14608
G1 X65.441 Y54.441 E9.15975
G1 X65.243 Y55.14 E9.17342
G1 X64.97 Y55.813 E9.18708
G1 X64.625 Y56.452 E9.20074
G1 X64.211 Y57.049 E9.21441
G1 X63.735 Y57.597 E9.22806
G1 X63.201 Y58.09 E9.24173
G1 X62.616 Y58.52 E9.25539
G1 X61.987 Y58.884 E9.26906
G1 X61.322 Y59.177 E9.28273
G1 X60.629 Y59.395 E9.29639
G1 X59.917 Y59.535 E9.31004
G1 X59 Y59.599 E9.32734
G1 X42.002 Y59.6 E9.64708
G1 X41.277 Y59.56 E9.66074
G1 X40.561 Y59.441 E9.67439
G1 X39.862 Y59.243 E9.68805
G1 X39.189 Y58.97 E9.70172
G1 X38.549 Y58.625 E9.71539
G1 X37.952 Y58.212 E9.72905
G1 X37.404 Y57.735 E9.74271
G1 X36.912 Y57.201 E9.75637
G1 X36.481 Y56.616 E9.77004
G1 X36.117 Y55.988 E9.78369
G1 X35.824 Y55.323 E9.79736
G1 X35.606 Y54.63 E9.81103
G1 X35.466 Y53.917 E9.8247
G1 X35.402 Y53 E9.84199
G1 X35.4 Y23.003 E10.40625
G1 X35.44 Y22.278 E10.41991
G1 X35.559 Y21.562 E10.43356
G1 X35.757 Y20.863 E10.44723
G1 X36.03 Y20.19 E10.46089
G1 X36.375 Y19.551 E10.47455
G0 F3600 X36.773 Y19.668
G1 F1800 X37.185 Y19.097 E10.48779
G1 X37.659 Y18.576 E10.50104
G1 X38.189 Y18.113 E10.51428
G1 X38.768 Y17.712 E10.52753
G1 X39.388 Y17.38 E10.54076
G1 X40.043 Y17.12 E10.55401
G1 X40.722 Y16.936 E10.56725
G1 X41.418 Y16.83 E10.58049
G1 X41.999 Y16.803 E10.59143
G1 X58.999 Y16.801 E10.91121
G1 X59.702 Y16.841 E10.92446
G1 X60.396 Y16.96 E10.9377
G1 X61.072 Y17.157 E10.95095
G1 X61.721 Y17.43 E10.96419
G1 X62.335 Y17.774 E10.97743
G1 X62.906 Y18.186 E10.99067
G1 X63.427 Y18.66 E11.00392
G1 X63.89 Y19.19 E11.01716
G1 X64.291 Y19.769 E11.03041
G1 X64.623 Y20.389 E11.04364
G1 X64.883 Y21.043 E11.05688
G1 X65.067 Y21.723 E11.07013
G1 X65.173 Y22.419 E11.08337
G1 X65.2 Y23.001 E11.09433
G1 X65.2 Y52.999 E11.65861
G1 X65.16 Y53.702 E11.67185
G1 X65.041 Y54.396 E11.6851
G1 X64.843 Y55.071 E11.69833
G1 X64.571 Y55.72 E11.71157
G1 X64.226 Y56.334 E11.72482
G1 X63.815 Y56.905 E11.73805
G1 X63.341 Y57.426 E11.7513
G1 X62.811 Y57.89 E11.76455
G1 X62.232 Y58.29 E11.77779
G1 X61.611 Y58.622 E11.79103
G1 X60.957 Y58.882 E11.80427
G1 X60.277 Y59.066 E11.81752
G1 X59.581 Y59.172 E11.83077
G1 X59 Y59.199 E11.84171
G1 X42.002 Y59.2 E12.16145
G1 X41.3 Y59.16 E12.17468
G1 X40.606 Y59.041 E12.18792
G1 X39.93 Y58.843 E12.20117
G1 X39.281 Y58.571 E12.21441
G1 X38.667 Y58.227 E12.22765
G1 X38.096 Y57.815 E12.24089
G1 X37.575 Y57.341 E12.25414
G1 X37.112 Y56.811 E12.26738
G1 X36.711 Y56.232 E12.28063
G1 X36.379 Y55.612 E12.29386
G1 X36.119 Y54.957 E12.30711
G1 X35.935 Y54.278 E12.32035
G1 X35.829 Y53.582 E12.33359
G1 X35.802 Y53 E12.34455
G1 X35.8 Y23.003 E12.90881
G1 X35.84 Y22.301 E12.92204
G1 X35.959 Y21.607 E12.93528
G1 X36.156 Y20.931 E12.94853
G1 X36.429 Y20.282 E12.96177
G1 X36.773 Y19.668 E12.97501
G0 F3600 X37.172 Y19.789
G1 F1800 X37.582 Y19.246 E12.98781
G1 X38.052 Y18.754 E13.00061
G1 X38.577 Y18.32 E13.01342
G1 X39.15 Y17.952 E13.02623
G1 X39.761 Y17.652 E13.03903
G1 X40.404 Y17.427 E13.05185
G1 X41.068 Y17.278 E13.06465
G1 X41.999 Y17.203 E13.08222
G1 X58.999 Y17.201 E13.402
G1 X59.679 Y17.241 E13.41481
G1 X60.349 Y17.36 E13.42761
G1 X61.001 Y17.557 E13.44042
G1 X61.625 Y17.829 E13.45323
G1 X62.213 Y18.172 E13.46603
G1 X62.757 Y18.582 E13.47885
G1 X63.249 Y19.053 E13.49166
G1 X63.682 Y19.578 E13.50446
G1 X64.051 Y20.151 E13.51728
G1 X64.35 Y20.762 E13.53007
G1 X64.576 Y21.405 E13.54289
G1 X64.725 Y22.069 E13.5557
G1 X64.8 Y23.001 E13.57328
G1 X64.8 Y52.999 E14.13756
G1 X64.76 Y53.679 E14.15038
G1 X64.641 Y54.349 E14.16318
G1 X64.444 Y55.001 E14.17599
G1 X64.172 Y55.625 E14.18879
G1 X63.828 Y56.213 E14.20161
G1 X63.418 Y56.757 E14.21442
G1 X62.947 Y57.248 E14.22722
G1 X62.422 Y57.682 E14.24003
G1 X61.85 Y58.051 E14.25284
G1 X61.238 Y58.35 E14.26565
G1 X60.596 Y58.575 E14.27845
G1 X59.931 Y58.724 E14.29126
G1 X59 Y58.799 E14.30883
G1 X42.002 Y58.8 E14.62858
G1 X41.323 Y58.76 E14.64137
G1 X40.652 Y58.641 E14.65419
G1 X40.001 Y58.444 E14.66698
G1 X39.376 Y58.172 E14.67981
G1 X38.788 Y57.828 E14.69262
G1 X38.245 Y57.418 E14.70542
G1 X37.753 Y56.948 E14.71822
G1 X37.319 Y56.423 E14.73103
G1 X36.951 Y55.85 E14.74384
G1 X36.651 Y55.239 E14.75664
G1 X36.426 Y54.596 E14.76946
G1 X36.277 Y53.932 E14.78226
G1 X36.202 Y53 E14.79985
G1 X36.2 Y23.003 E15.36411
G1 X36.24 Y22.324 E15.3769
G1 X36.359 Y21.653 E15.38972
G1 X36.556 Y21.002 E15.40252
G1 X36.828 Y20.377 E15.41534
G1 X37.172 Y19.789 E15.42815
G0 F3600 X37.57 Y19.916
G1 F1800 X37.977 Y19.401 E15.4405
G1 X38.445 Y18.939 E15.45287
G1 X38.964 Y18.537 E15.46522
G1 X39.529 Y18.201 E15.47758
G1 X40.131 Y17.937 E15.48995
G1 X40.76 Y17.747 E15.50231
G1 X41.407 Y17.636 E15.51466
G1 X41.999 Y17.603 E15.52581
G1 X58.999 Y17.601 E15.84559
G1 X59.655 Y17.641 E15.85795
G1 X60.301 Y17.76 E15.87031
G1 X60.928 Y17.957 E15.88267
G1 X61.526 Y18.228 E15.89502
G1 X62.087 Y18.57 E15.90738
G1 X62.602 Y18.978 E15.91974
G1 X63.064 Y19.445 E15.93209
G1 X63.466 Y19.965 E15.94446
G1 X63.801 Y20.53 E15.95681
G1 X64.066 Y21.131 E15.96917
G1 X64.256 Y21.76 E15.98153
G1 X64.367 Y22.408 E15.9939
G1 X64.4 Y23.001 E16.00507
G1 X64.4 Y52.999 E16.56935
G1 X64.36 Y53.655 E16.58171
G1 X64.241 Y54.301 E16.59407
G1 X64.044 Y54.928 E16.60643
G1 X63.772 Y55.526 E16.61879
G1 X63.43 Y56.087 E16.63115
G1 X63.022 Y56.602 E16.6435
G1 X62.555 Y57.064 E16.65586
G1 X62.035 Y57.465 E16.66821
G1 X61.471 Y57.801 E16.68056
G1 X60.869 Y58.065 E16.69293
G1 X60.24 Y58.255 E16.70529
G1 X59.593 Y58.366 E16.71764
G1 X59 Y58.399 E16.72881
G1 X42.002 Y58.4 E17.04855
G1 X41.347 Y58.36 E17.06089
G1 X40.701 Y58.241 E17.07325
G1 X40.074 Y58.044 E17.08561
G1 X39.475 Y57.773 E17.09798
G1 X38.915 Y57.43 E17.11033
G1 X38.399 Y57.023 E17.12269
G1 X37.938 Y56.555 E17.13505
G1 X37.536 Y56.036 E17.1474
G1 X37.2 Y55.471 E17.15977
G1 X36.936 Y54.869 E17.17213
G1 X36.746 Y54.24 E17.18449
G1 X36.635 Y53.593 E17.19684
G1 X36.602 Y53 E17.20801
G1 X36.6 Y23.003 E17.77227
G1 X36.64 Y22.348 E17.78461
G1 X36.759 Y21.702 E17.79697
G1 X36.956 Y21.075 E17.80933
G1 X37.227 Y20.477 E17.82168
G1 X37.57 Y19.916 E17.83405
G0 F3600 X37.967 Y20.047
G1 F1800 X38.372 Y19.562 E17.84594
G1 X38.836 Y19.132 E17.85784
G1 X39.349 Y18.763 E17.86972
G1 X39.905 Y18.463 E17.88161
G1 X40.495 Y18.235 E17.89351
G1 X41.109 Y18.083 E17.9054
G1 X41.999 Y18.003 E17.92221
G1 X58.999 Y18.001 E18.24199
G1 X59.63 Y18.041 E18.25389
G1 X60.251 Y18.16 E18.26578
G1 X60.852 Y18.357 E18.27768
G1 X61.423 Y18.627 E18.28956
G1 X61.956 Y18.968 E18.30146
G1 X62.441 Y19.373 E18.31335
G1 X62.871 Y19.836 E18.32523
G1 X63.239 Y20.35 E18.33712
G1 X63.54 Y20.906 E18.34902
G1 X63.768 Y21.496 E18.36091
G1 X63.92 Y22.109 E18.37279
G1 X64 Y23.001 E18.38964
G1 X64 Y52.999 E18.95392
G1 X63.96 Y53.63 E18.96581
G1 X63.841 Y54.251 E18.97771
G1 X63.644 Y54.851 E18.98959
G1 X63.373 Y55.423 E19.00149
G1 X63.033 Y55.955 E19.01337
G1 X62.627 Y56.44 E19.02527
G1 X62.164 Y56.87 E19.03715
G1 X61.65 Y57.239 E19.04905
G1 X61.094 Y57.539 E19.06094
G1 X60.505 Y57.767 E19.07282
G1 X59.891 Y57.919 E19.08472
G1 X59 Y57.999 E19.10154
G1 X42.002 Y58 E19.42129
G1 X41.371 Y57.96 E19.43318
G1 X40.751 Y57.841 E19.44506
G1 X40.15 Y57.644 E19.45695
G1 X39.579 Y57.373 E19.46884
G1 X39.046 Y57.033 E19.48073
G1 X38.561 Y56.628 E19.49262
G1 X38.131 Y56.164 E19.50452
G1 X37.762 Y55.651 E19.51641
G1 X37.462 Y55.095 E19.52829
G1 X37.234 Y54.505 E19.54019
G1 X37.082 Y53.891 E19.55209
G1 X37.002 Y53 E19.56891
G1 X37 Y23.003 E20.13317
G1 X37.04 Y22.372 E20.14507
G1 X37.159 Y21.752 E20.15694
G1 X37.356 Y21.151 E20.16884
G1 X37.627 Y20.58 E20.18073
G1 X37.967 Y20.047 E20.19262
G0 F3600 X38.364 Y20.185
G1 F1800 X38.767 Y19.731 E20.20404
G1 X39.225 Y19.334 E20.21544
G1 X39.732 Y19.001 E20.22685
G1 X40.278 Y18.738 E20.23825
G1 X40.854 Y18.548 E20.24966
G1 X41.449 Y18.436 E20.26105
G1 X41.999 Y18.403 E20.27141
G1 X58.999 Y18.401 E20.59119
G1 X59.604 Y18.441 E20.6026
G1 X60.199 Y18.56 E20.61401
G1 X60.773 Y18.756 E20.62542
G1 X61.315 Y19.026 E20.63681
G1 X61.818 Y19.365 E20.64822
G1 X62.272 Y19.768 E20.65964
G1 X62.669 Y20.226 E20.67104
G1 X63.002 Y20.732 E20.68244
G1 X63.265 Y21.278 E20.69384
G1 X63.455 Y21.854 E20.70525
G1 X63.567 Y22.45 E20.71665
G1 X63.6 Y23.001 E20.72704
G1 X63.6 Y52.999 E21.29132
G1 X63.56 Y53.604 E21.30272
G1 X63.441 Y54.198 E21.31412
G1 X63.245 Y54.772 E21.32553
G1 X62.974 Y55.315 E21.33694
G1 X62.635 Y55.818 E21.34835
G1 X62.233 Y56.271 E21.35974
G1 X61.775 Y56.668 E21.37115
G1 X61.268 Y57.001 E21.38256
G1 X60.722 Y57.265 E21.39396
G1 X60.146 Y57.454 E21.40537
G1 X59.55 Y57.566 E21.41677
G1 X59 Y57.599 E21.42714
G1 X42.002 Y57.6 E21.74688
G1 X41.397 Y57.56 E21.75829
G1 X40.803 Y57.441 E21.76968
G1 X40.229 Y57.245 E21.78109
G1 X39.686 Y56.975 E21.7925
G1 X39.184 Y56.636 E21.80389
G1 X38.73 Y56.233 E21.81531
G1 X38.333 Y55.775 E21.82671
G1 X38 Y55.268 E21.83812
G1 X37.737 Y54.722 E21.84952
G1 X37.547 Y54.146 E21.86093
G1 X37.435 Y53.55 E21.87234
G1 X37.402 Y53 E21.8827
G1 X37.4 Y23.003 E22.44696
G1 X37.44 Y22.398 E22.45837
G1 X37.559 Y21.804 E22.46976
G1 X37.755 Y21.23 E22.48117
G1 X38.025 Y20.687 E22.49258
G1 X38.364 Y20.185 E22.50398
G0 F3600 X38.761 Y20.329
G1 F1800 X39.16 Y19.909 E22.51487
G1 X39.613 Y19.547 E22.52578
G1 X40.111 Y19.252 E22.53667
G1 X40.645 Y19.028 E22.54756
G1 X41.205 Y18.879 E22.55846
G1 X42 Y18.803 E22.57348
G1 X59 Y18.801 E22.89326
G1 X59.577 Y18.841 E22.90414
G1 X60.144 Y18.96 E22.91504
G1 X60.69 Y19.156 E22.92595
G1 X61.203 Y19.425 E22.93685
G1 X61.674 Y19.762 E22.94774
G1 X62.094 Y20.161 E22.95864
G1 X62.455 Y20.613 E22.96952
G1 X62.751 Y21.112 E22.98044
G1 X62.975 Y21.646 E22.99133
G1 X63.124 Y22.206 E23.00223
G1 X63.2 Y23.001 E23.01725
G1 X63.2 Y52.999 E23.58153
