;FLAVOR:RepRap
;TIME:6666
;Filament used: 0m
;Layer height: 0.1

;Generated with Cura_SteamEngine master
M104 S215
M109 S215
G28 ;Home
G1 Z15.0 F6000 ;Move the platform down 15mm
;Prime the extruder
G92 E0
G1 F200 E3
G92 E0
;LAYER_COUNT:252
;LAYER:0
M107
G1 F1500 E-6.5
G0 F3600 X81.279 Y46.217 Z0.3
;TYPE:SKIRT
G1 F1500 E0
G1 F1800 X81.697 Y45.546 E0.01487
G1 X82.18 Y44.922 E0.02971
G1 X82.723 Y44.349 E0.04456
G1 X83.322 Y43.834 E0.05942
G1 X83.97 Y43.383 E0.07427
G1 X84.661 Y42.999 E0.08914
G1 X85.386 Y42.687 E0.10399
G1 X86.139 Y42.45 E0.11884
G1 X86.913 Y42.291 E0.1337
G1 X87.698 Y42.21 E0.14855
G1 X88.1 Y42.2 E0.15611
G1 X113.5 Y42.2 E0.6339
G1 X114.289 Y42.24 E0.64876
G1 X115.069 Y42.359 E0.6636
G1 X115.834 Y42.557 E0.67847
G1 X116.574 Y42.831 E0.69331
G1 X117.283 Y43.179 E0.70817
G1 X117.954 Y43.597 E0.72304
G1 X118.578 Y44.08 E0.73788
G1 X119.151 Y44.623 E0.75273
G1 X119.666 Y45.222 E0.76759
G1 X120.117 Y45.87 E0.78244
G1 X120.501 Y46.561 E0.79731
G1 X120.813 Y47.286 E0.81216
G1 X121.05 Y48.039 E0.82701
G1 X121.209 Y48.813 E0.84187
G1 X121.29 Y49.598 E0.85672
G1 X121.3 Y50 E0.86428
G1 X121.3 Y118.4 E2.15092
G1 X151.599 Y118.4 E2.72086
G1 X152.388 Y118.44 E2.73572
G1 X153.168 Y118.559 E2.75057
G1 X153.933 Y118.757 E2.76543
G1 X154.673 Y119.031 E2.78027
G1 X155.382 Y119.379 E2.79513
G1 X156.053 Y119.797 E2.81
G1 X156.677 Y120.28 E2.82484
G1 X157.25 Y120.823 E2.83969
G1 X157.765 Y121.422 E2.85455
G1 X158.216 Y122.07 E2.8694
G1 X158.6 Y122.761 E2.88427
G1 X158.912 Y123.486 E2.89912
G1 X159.149 Y124.239 E2.91397
G1 X159.308 Y125.013 E2.92883
G1 X159.389 Y125.798 E2.94368
G1 X159.399 Y126.2 E2.95124
G1 X159.399 Y151.599 E3.42901
G1 X159.359 Y152.388 E3.44387
G1 X159.24 Y153.168 E3.45871
G1 X159.042 Y153.933 E3.47358
G1 X158.768 Y154.673 E3.48842
G1 X158.42 Y155.382 E3.50328
G1 X158.002 Y156.053 E3.51815
G1 X157.519 Y156.677 E3.53299
G1 X156.976 Y157.25 E3.54784
G1 X156.377 Y157.765 E3.5627
G1 X155.729 Y158.216 E3.57755
G1 X155.038 Y158.6 E3.59242
G1 X154.313 Y158.912 E3.60727
G1 X153.56 Y159.149 E3.62212
G1 X152.786 Y159.308 E3.63698
G1 X152.001 Y159.389 E3.65183
G1 X151.599 Y159.399 E3.65939
G1 X50 Y159.399 E5.57052
G1 X49.211 Y159.359 E5.58538
G1 X48.431 Y159.24 E5.60023
G1 X47.666 Y159.042 E5.61509
G1 X46.926 Y158.768 E5.62993
G1 X46.217 Y158.42 E5.64479
G1 X45.546 Y158.002 E5.65966
G1 X44.922 Y157.519 E5.6745
G1 X44.349 Y156.976 E5.68935
G1 X43.834 Y156.377 E5.70421
G1 X43.383 Y155.729 E5.71906
G1 X42.999 Y155.038 E5.73393
G1 X42.687 Y154.313 E5.74878
G1 X42.45 Y153.56 E5.76363
G1 X42.291 Y152.786 E5.77849
G1 X42.21 Y152.001 E5.79334
G1 X42.2 Y151.599 E5.8009
G1 X42.2 Y126.2 E6.27867
G1 X42.24 Y125.411 E6.29353
G1 X42.359 Y124.631 E6.30838
G1 X42.557 Y123.866 E6.32324
G1 X42.831 Y123.126 E6.33808
G1 X43.179 Y122.417 E6.35294
G1 X43.597 Y121.746 E6.36781
G1 X44.08 Y121.122 E6.38265
G1 X44.623 Y120.549 E6.3975
G1 X45.222 Y120.034 E6.41236
G1 X45.87 Y119.583 E6.42721
G1 X46.561 Y119.199 E6.44208
G1 X47.286 Y118.887 E6.45693
G1 X48.039 Y118.65 E6.47178
G1 X48.813 Y118.491 E6.48664
G1 X49.598 Y118.41 E6.50149
G1 X50 Y118.4 E6.50905
G1 X80.3 Y118.4 E7.07901
G1 X80.3 Y50 E8.36565
G1 X80.34 Y49.211 E8.38051
G1 X80.459 Y48.431 E8.39536
G1 X80.657 Y47.666 E8.41022
G1 X80.931 Y46.926 E8.42506
G1 X81.279 Y46.217 E8.43992
G0 F3600 X81.678 Y46.324
G1 F1800 X82.094 Y45.677 E8.45439
G1 X82.575 Y45.077 E8.46886
G1 X83.116 Y44.53 E8.48333
G1 X83.711 Y44.042 E8.4978
G1 X84.353 Y43.619 E8.51226
G1 X85.036 Y43.264 E8.52674
G1 X85.751 Y42.983 E8.54119
G1 X86.493 Y42.777 E8.55568
G1 X87.251 Y42.649 E8.57014
G1 X88.1 Y42.6 E8.58614
G1 X113.5 Y42.6 E9.06392
G1 X114.268 Y42.64 E9.07839
G1 X115.028 Y42.759 E9.09286
G1 X115.771 Y42.957 E9.10733
G1 X116.49 Y43.231 E9.1218
G1 X117.176 Y43.578 E9.13626
G1 X117.823 Y43.994 E9.15073
G1 X118.423 Y44.475 E9.16519
G1 X118.97 Y45.016 E9.17967
G1 X119.458 Y45.611 E9.19414
G1 X119.881 Y46.253 E9.2086
G1 X120.236 Y46.936 E9.22308
G1 X120.517 Y47.651 E9.23753
G1 X120.723 Y48.393 E9.25202
G1 X120.851 Y49.151 E9.26648
G1 X120.9 Y50 E9.28248
G1 X120.9 Y118.8 E10.57664
G1 X151.599 Y118.8 E11.15411
G1 X152.367 Y118.84 E11.16857
G1 X153.127 Y118.959 E11.18304
G1 X153.87 Y119.157 E11.19751
G1 X154.589 Y119.431 E11.21198
G1 X155.275 Y119.778 E11.22644
G1 X155.922 Y120.194 E11.24091
G1 X156.522 Y120.675 E11.25538
G1 X157.069 Y121.216 E11.26985
G1 X157.557 Y121.811 E11.28432
G1 X157.98 Y122.453 E11.29879
G1 X158.335 Y123.136 E11.31327
G1 X158.616 Y123.851 E11.32772
G1 X158.822 Y124.593 E11.3422
G1 X158.95 Y125.351 E11.35666
G1 X158.999 Y126.2 E11.37266
G1 X158.999 Y151.599 E11.85043
G1 X158.959 Y152.367 E11.86489
G1 X158.84 Y153.127 E11.87936
G1 X158.642 Y153.87 E11.89383
G1 X158.368 Y154.589 E11.9083
G1 X158.021 Y155.275 E11.92276
G1 X157.605 Y155.922 E11.93723
G1 X157.124 Y156.522 E11.9517
G1 X156.583 Y157.069 E11.96617
G1 X155.988 Y157.557 E11.98064
G1 X155.346 Y157.98 E11.99511
G1 X154.663 Y158.335 E12.00959
G1 X153.948 Y158.616 E12.02404
G1 X153.206 Y158.822 E12.03852
G1 X152.448 Y158.95 E12.05298
G1 X151.599 Y158.999 E12.06898
G1 X50 Y158.999 E13.98011
G1 X49.232 Y158.959 E13.99458
G1 X48.472 Y158.84 E14.00905
G1 X47.729 Y158.642 E14.02351
G1 X47.01 Y158.368 E14.03799
G1 X46.324 Y158.021 E14.05245
G1 X45.677 Y157.605 E14.06692
G1 X45.077 Y157.124 E14.08138
G1 X44.53 Y156.583 E14.09585
G1 X44.042 Y155.988 E14.11033
G1 X43.619 Y155.346 E14.12479
G1 X43.264 Y154.663 E14.13927
G1 X42.983 Y153.948 E14.15372
G1 X42.777 Y153.206 E14.16821
G1 X42.649 Y152.448 E14.18267
G1 X42.6 Y151.599 E14.19866
G1 X42.6 Y126.2 E14.67643
G1 X42.64 Y125.432 E14.6909
G1 X42.759 Y124.672 E14.70537
G1 X42.957 Y123.929 E14.71983
G1 X43.231 Y123.21 E14.73431
G1 X43.578 Y122.524 E14.74877
G1 X43.994 Y121.877 E14.76324
G1 X44.475 Y121.277 E14.7777
G1 X45.016 Y120.73 E14.79217
G1 X45.611 Y120.242 E14.80665
G1 X46.253 Y119.819 E14.82111
G1 X46.936 Y119.464 E14.83559
G1 X47.651 Y119.183 E14.85004
G1 X48.393 Y118.977 E14.86453
G1 X49.151 Y118.849 E14.87899
G1 X50 Y118.8 E14.89498
G1 X80.7 Y118.8 E15.47247
G1 X80.7 Y50 E16.76663
G1 X80.74 Y49.232 E16.7811
G1 X80.859 Y48.472 E16.79557
G1 X81.057 Y47.729 E16.81003
G1 X81.331 Y47.01 E16.82451
G1 X81.678 Y46.324 E16.83897
G0 F3600 X82.077 Y46.434
G1 F1800 X82.492 Y45.811 E16.85305
G1 X82.971 Y45.237 E16.86711
G1 X83.508 Y44.716 E16.88119
G1 X84.098 Y44.257 E16.89525
G1 X84.734 Y43.862 E16.90933
G1 X85.408 Y43.538 E16.9234
G1 X86.113 Y43.288 E16.93747
G1 X86.841 Y43.114 E16.95155
G1 X87.583 Y43.019 E16.96562
G1 X88.1 Y43 E16.97535
G1 X113.5 Y43 E17.45314
G1 X114.247 Y43.04 E17.46721
G1 X114.985 Y43.159 E17.48127
G1 X115.707 Y43.357 E17.49536
G1 X116.403 Y43.63 E17.50942
G1 X117.066 Y43.977 E17.52349
G1 X117.689 Y44.392 E17.53758
G1 X118.263 Y44.871 E17.55164
G1 X118.784 Y45.408 E17.56571
G1 X119.243 Y45.998 E17.57977
G1 X119.638 Y46.634 E17.59386
G1 X119.962 Y47.308 E17.60792
G1 X120.212 Y48.013 E17.62199
G1 X120.386 Y48.741 E17.63607
G1 X120.481 Y49.483 E17.65015
G1 X120.5 Y50 E17.65988
G1 X120.5 Y119.2 E18.96157
G1 X151.599 Y119.2 E19.54656
G1 X152.346 Y119.24 E19.56063
G1 X153.084 Y119.359 E19.57469
G1 X153.806 Y119.557 E19.58877
G1 X154.502 Y119.83 E19.60284
G1 X155.165 Y120.177 E19.61691
G1 X155.788 Y120.592 E19.63099
G1 X156.362 Y121.071 E19.64506
G1 X156.883 Y121.608 E19.65913
G1 X157.342 Y122.198 E19.67319
G1 X157.737 Y122.834 E19.68728
G1 X158.061 Y123.508 E19.70134
G1 X158.311 Y124.213 E19.71541
G1 X158.485 Y124.941 E19.72949
G1 X158.58 Y125.683 E19.74356
G1 X158.599 Y126.2 E19.7533
G1 X158.599 Y151.599 E20.23107
G1 X158.559 Y152.346 E20.24514
G1 X158.44 Y153.084 E20.2592
G1 X158.242 Y153.806 E20.27328
G1 X157.969 Y154.502 E20.28734
G1 X157.622 Y155.165 E20.30142
G1 X157.207 Y155.788 E20.3155
G1 X156.728 Y156.362 E20.32956
G1 X156.191 Y156.883 E20.34364
G1 X155.601 Y157.342 E20.3577
G1 X154.965 Y157.737 E20.37178
G1 X154.291 Y158.061 E20.38585
G1 X153.586 Y158.311 E20.39992
G1 X152.858 Y158.485 E20.414
G1 X152.116 Y158.58 E20.42807
G1 X151.599 Y158.599 E20.4378
G1 X50 Y158.599 E22.34894
G1 X49.253 Y158.559 E22.36301
G1 X48.515 Y158.44 E22.37707
G1 X47.793 Y158.242 E22.39115
G1 X47.097 Y157.969 E22.40522
G1 X46.434 Y157.622 E22.41929
G1 X45.811 Y157.207 E22.43337
G1 X45.237 Y156.728 E22.44744
G1 X44.716 Y156.191 E22.46151
G1 X44.257 Y155.601 E22.47557
G1 X43.862 Y154.965 E22.48965
G1 X43.538 Y154.291 E22.50372
G1 X43.288 Y153.586 E22.51779
G1 X43.114 Y152.858 E22.53187
G1 X43.019 Y152.116 E22.54594
G1 X43 Y151.599 E22.55568
G1 X43 Y126.2 E23.03344
G1 X43.04 Y125.453 E23.04752
G1 X43.159 Y124.715 E23.06158
G1 X43.357 Y123.993 E23.07566
G1 X43.63 Y123.297 E23.08972
G1 X43.977 Y122.634 E23.1038
G1 X44.392 Y122.011 E23.11788
G1 X44.871 Y121.437 E23.13194
G1 X45.408 Y120.916 E23.14602
G1 X45.998 Y120.457 E23.16008
G1 X46.634 Y120.062 E23.17416
G1 X47.308 Y119.738 E23.18823
G1 X48.013 Y119.488 E23.2023
G1 X48.741 Y119.314 E23.21638
G1 X49.483 Y119.219 E23.23045
G1 X50 Y119.2 E23.24018
G1 X81.1 Y119.2 E23.82519
G1 X81.1 Y50 E25.12688
G1 X81.14 Y49.253 E25.14095
G1 X81.259 Y48.515 E25.15501
G1 X81.457 Y47.793 E25.1691
G1 X81.73 Y47.097 E25.18316
G1 X82.077 Y46.434 E25.19724
G0 F3600 X82.475 Y46.547
G1 F1800 X82.889 Y45.95 E25.2109
G1 X83.365 Y45.402 E25.22456
G1 X83.899 Y44.909 E25.23823
G1 X84.484 Y44.479 E25.25188
G1 X85.113 Y44.115 E25.26555
G1 X85.778 Y43.822 E25.27922
G1 X86.471 Y43.604 E25.29289
G1 X87.183 Y43.464 E25.30654
G1 X88.1 Y43.4 E25.32383
G1 X113.5 Y43.4 E25.80162
G1 X114.225 Y43.44 E25.81528
G1 X114.942 Y43.559 E25.82895
G1 X115.641 Y43.757 E25.84261
G1 X116.314 Y44.03 E25.85628
G1 X116.953 Y44.375 E25.86994
G1 X117.55 Y44.789 E25.8836
G1 X118.098 Y45.265 E25.89726
G1 X118.591 Y45.799 E25.91093
G1 X119.021 Y46.384 E25.92458
G1 X119.385 Y47.013 E25.93825
G1 X119.678 Y47.678 E25.95192
G1 X119.896 Y48.371 E25.96559
G1 X120.036 Y49.083 E25.97924
G1 X120.1 Y50 E25.99653
G1 X120.1 Y119.6 E27.30574
G1 X151.599 Y119.6 E27.89826
G1 X152.324 Y119.64 E27.91192
G1 X153.041 Y119.759 E27.92559
G1 X153.74 Y119.957 E27.93925
G1 X154.413 Y120.23 E27.95292
G1 X155.052 Y120.575 E27.96658
G1 X155.649 Y120.989 E27.98024
G1 X156.197 Y121.465 E27.9939
G1 X156.69 Y121.999 E28.00757
G1 X157.12 Y122.584 E28.02122
G1 X157.484 Y123.213 E28.03489
G1 X157.777 Y123.878 E28.04856
G1 X157.995 Y124.571 E28.06223
G1 X158.135 Y125.283 E28.07588
G1 X158.199 Y126.2 E28.09317
G1 X158.199 Y151.599 E28.57094
G1 X158.159 Y152.324 E28.5846
G1 X158.04 Y153.041 E28.59827
G1 X157.842 Y153.74 E28.61193
G1 X157.569 Y154.413 E28.6256
G1 X157.224 Y155.052 E28.63926
G1 X156.81 Y155.649 E28.65292
G1 X156.334 Y156.197 E28.66658
G1 X155.8 Y156.69 E28.68025
G1 X155.215 Y157.12 E28.6939
G1 X154.586 Y157.484 E28.70757
G1 X153.921 Y157.777 E28.72124
G1 X153.228 Y157.995 E28.73491
G1 X152.516 Y158.135 E28.74856
G1 X151.599 Y158.199 E28.76585
G1 X50 Y158.199 E30.67698
G1 X49.275 Y158.159 E30.69064
G1 X48.558 Y158.04 E30.70431
G1 X47.859 Y157.842 E30.71798
G1 X47.186 Y157.569 E30.73164
G1 X46.547 Y157.224 E30.7453
G1 X45.95 Y156.81 E30.75897
G1 X45.402 Y156.334 E30.77262
G1 X44.909 Y155.8 E30.78629
G1 X44.479 Y155.215 E30.79995
G1 X44.115 Y154.586 E30.81362
G1 X43.822 Y153.921 E30.82729
G1 X43.604 Y153.228 E30.84095
G1 X43.464 Y152.516 E30.8546
G1 X43.4 Y151.599 E30.8719
G1 X43.4 Y126.2 E31.34966
G1 X43.44 Y125.475 E31.36332
G1 X43.559 Y124.758 E31.37699
G1 X43.757 Y124.059 E31.39066
G1 X44.03 Y123.386 E31.40432
G1 X44.375 Y122.747 E31.41798
G1 X44.789 Y122.15 E31.43165
G1 X45.265 Y121.602 E31.4453
G1 X45.799 Y121.109 E31.45897
G1 X46.384 Y120.679 E31.47263
G1 X47.013 Y120.315 E31.4863
G1 X47.678 Y120.022 E31.49997
G1 X48.371 Y119.804 E31.51363
G1 X49.083 Y119.664 E31.52728
G1 X50 Y119.6 E31.54458
G1 X81.5 Y119.6 E32.13711
G1 X81.5 Y50 E33.44632
G1 X81.54 Y49.275 E33.45998
G1 X81.659 Y48.558 E33.47365
G1 X81.857 Y47.859 E33.48732
G1 X82.13 Y47.186 E33.50098
G1 X82.475 Y46.547 E33.51464
G0 F3600 X82.874 Y46.665
G1 F1800 X83.285 Y46.094 E33.52787
G1 X83.759 Y45.573 E33.54112
G1 X84.289 Y45.109 E33.55437
G1 X84.868 Y44.709 E33.56761
G1 X85.489 Y44.377 E33.58086
G1 X86.143 Y44.117 E33.5941
G1 X86.823 Y43.933 E33.60735
G1 X87.519 Y43.827 E33.62059
G1 X88.1 Y43.8 E33.63153
G1 X113.5 Y43.8 E34.10932
G1 X114.203 Y43.84 E34.12256
G1 X114.897 Y43.959 E34.13581
G1 X115.572 Y44.157 E34.14904
G1 X116.221 Y44.429 E34.16228
G1 X116.835 Y44.774 E34.17553
G1 X117.406 Y45.185 E34.18876
G1 X117.927 Y45.659 E34.20201
G1 X118.391 Y46.189 E34.21526
G1 X118.791 Y46.768 E34.2285
G1 X119.123 Y47.389 E34.24174
G1 X119.383 Y48.043 E34.25498
G1 X119.567 Y48.723 E34.26823
G1 X119.673 Y49.419 E34.28148
G1 X119.7 Y50 E34.29242
G1 X119.7 Y120 E35.60916
G1 X151.599 Y120 E36.20919
G1 X152.302 Y120.04 E36.22244
G1 X152.996 Y120.159 E36.23568
G1 X153.671 Y120.357 E36.24892
G1 X154.32 Y120.629 E36.26215
G1 X154.934 Y120.974 E36.2754
G1 X155.505 Y121.385 E36.28864
G1 X156.026 Y121.859 E36.30188
G1 X156.49 Y122.389 E36.31514
G1 X156.89 Y122.968 E36.32837
G1 X157.222 Y123.589 E36.34162
G1 X157.482 Y124.243 E36.35486
G1 X157.666 Y124.923 E36.36811
G1 X157.772 Y125.619 E36.38135
G1 X157.799 Y126.2 E36.39229
G1 X157.799 Y151.599 E36.87006
G1 X157.759 Y152.302 E36.88331
G1 X157.64 Y152.996 E36.89655
G1 X157.442 Y153.671 E36.90978
G1 X157.17 Y154.32 E36.92302
G1 X156.825 Y154.934 E36.93627
G1 X156.414 Y155.505 E36.9495
G1 X155.94 Y156.026 E36.96275
G1 X155.41 Y156.49 E36.976
G1 X154.831 Y156.89 E36.98924
G1 X154.21 Y157.222 E37.00249
G1 X153.556 Y157.482 E37.01572
G1 X152.876 Y157.666 E37.02898
G1 X152.18 Y157.772 E37.04222
G1 X151.599 Y157.799 E37.05316
G1 X50 Y157.799 E38.96429
G1 X49.297 Y157.759 E38.97754
G1 X48.603 Y157.64 E38.99078
G1 X47.928 Y157.442 E39.00402
G1 X47.279 Y157.17 E39.01725
G1 X46.665 Y156.825 E39.0305
G1 X46.094 Y156.414 E39.04373
G1 X45.573 Y155.94 E39.05698
G1 X45.109 Y155.41 E39.07023
G1 X44.709 Y154.831 E39.08347
G1 X44.377 Y154.21 E39.09672
G1 X44.117 Y153.556 E39.10996
G1 X43.933 Y152.876 E39.12321
G1 X43.827 Y152.18 E39.13645
G1 X43.8 Y151.599 E39.14739
G1 X43.8 Y126.2 E39.62516
G1 X43.84 Y125.497 E39.63841
G1 X43.959 Y124.803 E39.65165
G1 X44.157 Y124.128 E39.66488
G1 X44.429 Y123.479 E39.67812
G1 X44.774 Y122.865 E39.69137
G1 X45.185 Y122.294 E39.7046
G1 X45.659 Y121.773 E39.71785
G1 X46.189 Y121.309 E39.7311
G1 X46.768 Y120.909 E39.74434
G1 X47.389 Y120.577 E39.75759
G1 X48.043 Y120.317 E39.77082
G1 X48.723 Y120.133 E39.78408
G1 X49.419 Y120.027 E39.79732
G1 X50 Y120 E39.80826
G1 X81.9 Y120 E40.40832
G1 X81.9 Y50 E41.72505
G1 X81.94 Y49.297 E41.7383
G1 X82.059 Y48.603 E41.75154
G1 X82.257 Y47.928 E41.76478
G1 X82.529 Y47.279 E41.77801
G1 X82.874 Y46.665 E41.79126
G0 F3600 X83.272 Y46.786
G1 F1800 X83.682 Y46.242 E41.80408
G1 X84.153 Y45.751 E41.81687
G1 X84.678 Y45.317 E41.82969
G1 X85.25 Y44.948 E41.84249
G1 X85.862 Y44.649 E41.8553
G1 X86.504 Y44.424 E41.8681
G1 X87.169 Y44.275 E41.88092
G1 X88.1 Y44.2 E41.89849
G1 X113.5 Y44.2 E42.37628
G1 X114.18 Y44.24 E42.38909
G1 X114.85 Y44.359 E42.40189
G1 X115.502 Y44.556 E42.4147
G1 X116.126 Y44.828 E42.42751
G1 X116.714 Y45.172 E42.44032
G1 X117.258 Y45.582 E42.45314
G1 X117.749 Y46.053 E42.46593
G1 X118.183 Y46.578 E42.47875
G1 X118.552 Y47.15 E42.49155
G1 X118.851 Y47.762 E42.50436
G1 X119.076 Y48.404 E42.51716
G1 X119.225 Y49.069 E42.52998
G1 X119.3 Y50 E42.54755
G1 X119.3 Y120.4 E43.87181
G1 X151.599 Y120.4 E44.47937
G1 X152.279 Y120.44 E44.49219
G1 X152.949 Y120.559 E44.50499
G1 X153.601 Y120.756 E44.5178
G1 X154.225 Y121.028 E44.5306
G1 X154.813 Y121.372 E44.54342
G1 X155.357 Y121.782 E44.55623
G1 X155.848 Y122.253 E44.56903
G1 X156.282 Y122.778 E44.58184
G1 X156.651 Y123.35 E44.59465
G1 X156.95 Y123.962 E44.60746
G1 X157.175 Y124.604 E44.62026
G1 X157.324 Y125.269 E44.63308
G1 X157.399 Y126.2 E44.65065
G1 X157.399 Y151.599 E45.12842
G1 X157.359 Y152.279 E45.14123
G1 X157.24 Y152.949 E45.15403
G1 X157.043 Y153.601 E45.16684
G1 X156.771 Y154.225 E45.17965
G1 X156.427 Y154.813 E45.19246
G1 X156.017 Y155.357 E45.20527
G1 X155.546 Y155.848 E45.21807
G1 X155.021 Y156.282 E45.23088
G1 X154.449 Y156.651 E45.24369
G1 X153.837 Y156.95 E45.2565
G1 X153.195 Y157.175 E45.2693
