<<<<<<< HEAD
;FLAVOR:RepRap
;TIME:6666
;Filament used: 0m
;Layer height: 0.1

;Generated with Cura_SteamEngine master
M104 S215
M109 S215
G28 ;Home
G1 Z15.0 F6000 ;Move the platform down 15mm
;Prime the extruder
G92 E0
G1 F200 E3
G92 E0
;LAYER_COUNT:628
;LAYER:0
M107
G1 F1500 E-6.5
G0 F3600 X23.623 Y26.349 Z0.3
;TYPE:SKIRT
G1 F1500 E0
G1 F1800 X24.222 Y25.834 E0.01486
G1 X24.87 Y25.383 E0.02971
G1 X25.561 Y24.999 E0.04458
G1 X26.286 Y24.687 E0.05943
G1 X27.039 Y24.45 E0.07428
G1 X27.813 Y24.291 E0.08914
G1 X28.598 Y24.21 E0.10398
G1 X29 Y24.2 E0.11155
G1 X49 Y24.2 E0.48776
G1 X49.789 Y24.24 E0.50262
G1 X50.569 Y24.359 E0.51746
G1 X51.334 Y24.557 E0.53233
G1 X52.074 Y24.831 E0.54717
G1 X52.783 Y25.179 E0.56203
G1 X53.454 Y25.597 E0.5769
G1 X54.078 Y26.08 E0.59174
G1 X54.651 Y26.623 E0.60659
G1 X55.166 Y27.222 E0.62145
G1 X55.617 Y27.87 E0.6363
G1 X56.001 Y28.561 E0.65117
G1 X56.313 Y29.286 E0.66602
G1 X56.55 Y30.039 E0.68087
G1 X56.709 Y30.813 E0.69573
G1 X56.79 Y31.598 E0.71058
G1 X56.8 Y32 E0.71814
G1 X56.8 Y52 E1.09435
G1 X56.76 Y52.789 E1.10921
G1 X56.641 Y53.569 E1.12405
G1 X56.443 Y54.334 E1.13892
G1 X56.169 Y55.074 E1.15376
G1 X55.821 Y55.783 E1.16862
G1 X55.403 Y56.454 E1.18349
G1 X54.92 Y57.078 E1.19833
G1 X54.377 Y57.651 E1.21318
G1 X53.778 Y58.166 E1.22804
G1 X53.13 Y58.617 E1.24289
G1 X52.439 Y59.001 E1.25776
G1 X51.714 Y59.313 E1.27261
G1 X50.961 Y59.55 E1.28746
G1 X50.187 Y59.709 E1.30232
G1 X49.402 Y59.79 E1.31717
G1 X49 Y59.8 E1.32473
G1 X29 Y59.8 E1.70094
G1 X28.211 Y59.76 E1.7158
G1 X27.431 Y59.641 E1.73064
G1 X26.666 Y59.443 E1.74551
G1 X25.926 Y59.169 E1.76035
G1 X25.217 Y58.821 E1.77521
G1 X24.546 Y58.403 E1.79008
G1 X23.922 Y57.92 E1.80492
G1 X23.349 Y57.377 E1.81977
G1 X22.834 Y56.778 E1.83463
G1 X22.383 Y56.13 E1.84948
G1 X21.999 Y55.439 E1.86435
G1 X21.687 Y54.714 E1.8792
G1 X21.45 Y53.961 E1.89405
G1 X21.291 Y53.187 E1.90891
G1 X21.21 Y52.402 E1.92376
G1 X21.2 Y52 E1.93132
G1 X21.2 Y32 E2.30753
G1 X21.24 Y31.211 E2.32239
G1 X21.359 Y30.431 E2.33723
G1 X21.557 Y29.666 E2.3521
G1 X21.831 Y28.926 E2.36694
G1 X22.179 Y28.217 E2.3818
G1 X22.597 Y27.546 E2.39667
G1 X23.08 Y26.922 E2.41151
G1 X23.623 Y26.349 E2.42636
G0 F3600 X24.016 Y26.53
G1 F1800 X24.611 Y26.042 E2.44084
G1 X25.253 Y25.619 E2.4553
G1 X25.936 Y25.264 E2.46978
G1 X26.651 Y24.983 E2.48423
G1 X27.393 Y24.777 E2.49871
G1 X28.151 Y24.649 E2.51317
G1 X29 Y24.6 E2.52917
G1 X49 Y24.6 E2.90538
G1 X49.768 Y24.64 E2.91985
G1 X50.528 Y24.759 E2.93432
G1 X51.271 Y24.957 E2.94878
G1 X51.99 Y25.231 E2.96326
G1 X52.676 Y25.578 E2.97772
G1 X53.323 Y25.994 E2.99219
G1 X53.923 Y26.475 E3.00665
G1 X54.47 Y27.016 E3.02112
G1 X54.958 Y27.611 E3.0356
G1 X55.381 Y28.253 E3.05006
G1 X55.736 Y28.936 E3.06454
G1 X56.017 Y29.651 E3.07899
G1 X56.223 Y30.393 E3.09348
G1 X56.351 Y31.151 E3.10794
G1 X56.4 Y32 E3.12393
G1 X56.4 Y52 E3.50014
G1 X56.36 Y52.768 E3.51461
G1 X56.241 Y53.528 E3.52908
G1 X56.043 Y54.271 E3.54354
G1 X55.769 Y54.99 E3.55802
G1 X55.422 Y55.676 E3.57248
G1 X55.006 Y56.323 E3.58695
G1 X54.525 Y56.923 E3.60141
G1 X53.984 Y57.47 E3.61589
G1 X53.389 Y57.958 E3.63036
G1 X52.747 Y58.381 E3.64482
G1 X52.064 Y58.736 E3.6593
G1 X51.349 Y59.017 E3.67375
G1 X50.607 Y59.223 E3.68824
G1 X49.849 Y59.351 E3.7027
G1 X49 Y59.4 E3.7187
G1 X29 Y59.4 E4.09491
G1 X28.232 Y59.36 E4.10937
G1 X27.472 Y59.241 E4.12384
G1 X26.729 Y59.043 E4.13831
G1 X26.01 Y58.769 E4.15278
G1 X25.324 Y58.422 E4.16724
G1 X24.677 Y58.006 E4.18171
G1 X24.077 Y57.525 E4.19618
G1 X23.53 Y56.984 E4.21065
G1 X23.042 Y56.389 E4.22512
G1 X22.619 Y55.747 E4.23958
G1 X22.264 Y55.064 E4.25406
G1 X21.983 Y54.349 E4.26852
G1 X21.777 Y53.607 E4.283
G1 X21.649 Y52.849 E4.29746
G1 X21.6 Y52 E4.31346
G1 X21.6 Y32 E4.68967
G1 X21.64 Y31.232 E4.70413
G1 X21.759 Y30.472 E4.7186
G1 X21.957 Y29.729 E4.73307
G1 X22.231 Y29.01 E4.74754
G1 X22.578 Y28.324 E4.762
G1 X22.994 Y27.677 E4.77647
G1 X23.475 Y27.077 E4.79094
G1 X24.016 Y26.53 E4.80541
G0 F3600 X24.408 Y26.716
G1 F1800 X24.998 Y26.257 E4.81947
G1 X25.634 Y25.862 E4.83355
G1 X26.308 Y25.538 E4.84762
G1 X27.013 Y25.288 E4.86169
G1 X27.741 Y25.114 E4.87577
G1 X28.483 Y25.019 E4.88984
G1 X29 Y25 E4.89957
G1 X49 Y25 E5.27579
G1 X49.747 Y25.04 E5.28986
G1 X50.485 Y25.159 E5.30392
G1 X51.207 Y25.357 E5.318
G1 X51.903 Y25.63 E5.33206
G1 X52.566 Y25.977 E5.34614
G1 X53.189 Y26.392 E5.36022
G1 X53.763 Y26.871 E5.37428
G1 X54.284 Y27.408 E5.38836
G1 X54.743 Y27.998 E5.40242
G1 X55.138 Y28.634 E5.4165
G1 X55.462 Y29.308 E5.43057
G1 X55.712 Y30.013 E5.44464
G1 X55.886 Y30.741 E5.45872
G1 X55.981 Y31.483 E5.47279
G1 X56 Y32 E5.48252
G1 X56 Y52 E5.85873
G1 X55.96 Y52.747 E5.87281
G1 X55.841 Y53.485 E5.88687
G1 X55.643 Y54.207 E5.90095
G1 X55.37 Y54.903 E5.91501
G1 X55.023 Y55.566 E5.92909
G1 X54.608 Y56.189 E5.94317
G1 X54.129 Y56.763 E5.95723
G1 X53.592 Y57.284 E5.97131
G1 X53.002 Y57.743 E5.98537
G1 X52.366 Y58.138 E5.99945
G1 X51.692 Y58.462 E6.01352
G1 X50.987 Y58.712 E6.02759
G1 X50.259 Y58.886 E6.04167
G1 X49.517 Y58.981 E6.05574
G1 X49 Y59 E6.06547
G1 X29 Y59 E6.44168
G1 X28.253 Y58.96 E6.45576
G1 X27.515 Y58.841 E6.46982
G1 X26.793 Y58.643 E6.4839
G1 X26.097 Y58.37 E6.49796
G1 X25.434 Y58.023 E6.51204
G1 X24.811 Y57.608 E6.52612
G1 X24.237 Y57.129 E6.54018
G1 X23.716 Y56.592 E6.55426
G1 X23.257 Y56.002 E6.56832
G1 X22.862 Y55.366 E6.5824
G1 X22.538 Y54.692 E6.59647
G1 X22.288 Y53.987 E6.61054
G1 X22.114 Y53.259 E6.62462
G1 X22.019 Y52.517 E6.63869
G1 X22 Y52 E6.64842
G1 X22 Y32 E7.02463
G1 X22.04 Y31.253 E7.0387
G1 X22.159 Y30.515 E7.05277
G1 X22.357 Y29.793 E7.06685
G1 X22.63 Y29.097 E7.08091
G1 X22.977 Y28.434 E7.09499
G1 X23.392 Y27.811 E7.10907
G1 X23.871 Y27.237 E7.12313
G1 X24.408 Y26.716 E7.13721
G0 F3600 X24.799 Y26.909
G1 F1800 X25.384 Y26.479 E7.15086
G1 X26.013 Y26.115 E7.16453
G1 X26.678 Y25.822 E7.1782
G1 X27.371 Y25.604 E7.19187
G1 X28.083 Y25.464 E7.20552
G1 X29 Y25.4 E7.22281
G1 X49 Y25.4 E7.59902
G1 X49.725 Y25.44 E7.61268
G1 X50.442 Y25.559 E7.62635
G1 X51.141 Y25.757 E7.64002
G1 X51.814 Y26.03 E7.65368
G1 X52.453 Y26.375 E7.66734
G1 X53.05 Y26.789 E7.681
G1 X53.598 Y27.265 E7.69466
G1 X54.091 Y27.799 E7.70833
G1 X54.521 Y28.384 E7.72199
G1 X54.885 Y29.013 E7.73566
G1 X55.178 Y29.678 E7.74933
G1 X55.396 Y30.371 E7.76299
G1 X55.536 Y31.083 E7.77664
G1 X55.6 Y32 E7.79393
G1 X55.6 Y52 E8.17014
G1 X55.56 Y52.725 E8.1838
G1 X55.441 Y53.442 E8.19747
G1 X55.243 Y54.141 E8.21114
G1 X54.97 Y54.814 E8.2248
G1 X54.625 Y55.453 E8.23846
G1 X54.211 Y56.05 E8.25213
G1 X53.735 Y56.598 E8.26578
G1 X53.201 Y57.091 E8.27945
G1 X52.616 Y57.521 E8.29311
G1 X51.987 Y57.885 E8.30678
G1 X51.322 Y58.178 E8.32045
G1 X50.629 Y58.396 E8.33411
G1 X49.917 Y58.536 E8.34776
G1 X49 Y58.6 E8.36505
G1 X29 Y58.6 E8.74127
G1 X28.275 Y58.56 E8.75492
G1 X27.558 Y58.441 E8.7686
G1 X26.859 Y58.243 E8.78226
G1 X26.186 Y57.97 E8.79592
G1 X25.547 Y57.625 E8.80958
G1 X24.95 Y57.211 E8.82325
G1 X24.402 Y56.735 E8.8369
G1 X23.909 Y56.201 E8.85057
G1 X23.479 Y55.616 E8.86423
G1 X23.115 Y54.987 E8.8779
G1 X22.822 Y54.322 E8.89157
G1 X22.604 Y53.629 E8.90524
G1 X22.464 Y52.917 E8.91889
G1 X22.4 Y52 E8.93618
G1 X22.4 Y32 E9.31239
G1 X22.44 Y31.275 E9.32605
G1 X22.559 Y30.558 E9.33972
G1 X22.757 Y29.859 E9.35338
G1 X23.03 Y29.186 E9.36704
G1 X23.375 Y28.547 E9.3807
G1 X23.789 Y27.95 E9.39437
G1 X24.265 Y27.402 E9.40802
G1 X24.799 Y26.909 E9.4217
G0 F3600 X25.189 Y27.109
G1 F1800 X25.768 Y26.709 E9.43493
G1 X26.389 Y26.377 E9.44818
G1 X27.043 Y26.117 E9.46142
G1 X27.723 Y25.933 E9.47467
G1 X28.419 Y25.827 E9.48791
G1 X29 Y25.8 E9.49885
G1 X49 Y25.8 E9.87506
G1 X49.703 Y25.84 E9.88831
G1 X50.397 Y25.959 E9.90155
G1 X51.072 Y26.157 E9.91479
G1 X51.721 Y26.429 E9.92802
G1 X52.335 Y26.774 E9.94127
G1 X52.906 Y27.185 E9.95451
G1 X53.427 Y27.659 E9.96775
G1 X53.891 Y28.189 E9.98101
G1 X54.291 Y28.768 E9.99424
G1 X54.623 Y29.389 E10.00749
G1 X54.883 Y30.043 E10.02073
G1 X55.067 Y30.723 E10.03398
G1 X55.173 Y31.419 E10.04722
G1 X55.2 Y32 E10.05816
G1 X55.2 Y52 E10.43437
G1 X55.16 Y52.703 E10.44762
G1 X55.041 Y53.397 E10.46086
G1 X54.843 Y54.072 E10.4741
G1 X54.571 Y54.721 E10.48733
G1 X54.226 Y55.335 E10.50058
G1 X53.815 Y55.906 E10.51381
G1 X53.341 Y56.427 E10.52706
G1 X52.811 Y56.891 E10.54031
G1 X52.232 Y57.291 E10.55355
G1 X51.611 Y57.623 E10.5668
G1 X50.957 Y57.883 E10.58004
G1 X50.277 Y58.067 E10.59329
G1 X49.581 Y58.173 E10.60653
G1 X49 Y58.2 E10.61747
G1 X29 Y58.2 E10.99368
G1 X28.297 Y58.16 E11.00693
G1 X27.603 Y58.041 E11.02017
G1 X26.928 Y57.843 E11.03341
G1 X26.279 Y57.571 E11.04664
G1 X25.665 Y57.226 E11.05989
G1 X25.094 Y56.815 E11.07312
G1 X24.573 Y56.341 E11.08637
G1 X24.109 Y55.811 E11.09962
G1 X23.709 Y55.232 E11.11286
G1 X23.377 Y54.611 E11.12611
G1 X23.117 Y53.957 E11.13935
G1 X22.933 Y53.277 E11.1526
G1 X22.827 Y52.581 E11.16584
G1 X22.8 Y52 E11.17678
G1 X22.8 Y32 E11.55299
G1 X22.84 Y31.297 E11.56624
G1 X22.959 Y30.603 E11.57948
G1 X23.157 Y29.928 E11.59271
G1 X23.429 Y29.279 E11.60595
G1 X23.774 Y28.665 E11.6192
G1 X24.185 Y28.094 E11.63243
G1 X24.659 Y27.573 E11.64568
G1 X25.189 Y27.109 E11.65893
G0 F3600 X25.578 Y27.317
G1 F1800 X26.15 Y26.948 E11.67174
G1 X26.762 Y26.649 E11.68455
G1 X27.404 Y26.424 E11.69735
G1 X28.069 Y26.275 E11.71017
G1 X29 Y26.2 E11.72773
G1 X49 Y26.2 E12.10395
G1 X49.68 Y26.24 E12.11676
G1 X50.35 Y26.359 E12.12956
G1 X51.002 Y26.556 E12.14237
G1 X51.626 Y26.828 E12.15518
G1 X52.214 Y27.172 E12.16799
G1 X52.758 Y27.582 E12.1808
G1 X53.249 Y28.053 E12.1936
G1 X53.683 Y28.578 E12.20642
G1 X54.052 Y29.15 E12.21922
G1 X54.351 Y29.762 E12.23203
G1 X54.576 Y30.404 E12.24483
G1 X54.725 Y31.069 E12.25765
G1 X54.8 Y32 E12.27522
G1 X54.8 Y52 E12.65143
G1 X54.76 Y52.68 E12.66424
G1 X54.641 Y53.35 E12.67704
G1 X54.444 Y54.002 E12.68985
G1 X54.172 Y54.626 E12.70266
G1 X53.828 Y55.214 E12.71547
G1 X53.418 Y55.758 E12.72829
G1 X52.947 Y56.249 E12.74109
G1 X52.422 Y56.683 E12.7539
G1 X51.85 Y57.052 E12.7667
G1 X51.238 Y57.351 E12.77952
G1 X50.596 Y57.576 E12.79231
G1 X49.931 Y57.725 E12.80513
G1 X49 Y57.8 E12.8227
G1 X29 Y57.8 E13.19891
G1 X28.32 Y57.76 E13.21172
G1 X27.65 Y57.641 E13.22452
G1 X26.998 Y57.444 E13.23734
G1 X26.374 Y57.172 E13.25014
G1 X25.786 Y56.828 E13.26296
G1 X25.242 Y56.418 E13.27577
G1 X24.751 Y55.947 E13.28857
G1 X24.317 Y55.422 E13.30138
G1 X23.948 Y54.85 E13.31419
G1 X23.649 Y54.238 E13.327
G1 X23.424 Y53.596 E13.33979
G1 X23.275 Y52.931 E13.35261
G1 X23.2 Y52 E13.37018
G1 X23.2 Y32 E13.74639
G1 X23.24 Y31.32 E13.75921
G1 X23.359 Y30.65 E13.77201
G1 X23.556 Y29.998 E13.78482
G1 X23.828 Y29.374 E13.79762
G1 X24.172 Y28.786 E13.81044
G1 X24.582 Y28.242 E13.82325
G1 X25.053 Y27.751 E13.83605
G1 X25.578 Y27.317 E13.84886
G0 F3600 X25.965 Y27.534
G1 F1800 X26.529 Y27.198 E13.86121
G1 X27.131 Y26.934 E13.87358
G1 X27.76 Y26.744 E13.88594
G1 X28.407 Y26.633 E13.89829
G1 X29 Y26.6 E13.90946
G1 X49 Y26.6 E14.28567
G1 X49.656 Y26.64 E14.29803
G1 X50.302 Y26.759 E14.31039
G1 X50.929 Y26.956 E14.32275
G1 X51.527 Y27.228 E14.33511
G1 X52.088 Y27.57 E14.34747
G1 X52.603 Y27.978 E14.35983
G1 X53.065 Y28.445 E14.37218
G1 X53.466 Y28.965 E14.38454
G1 X53.802 Y29.529 E14.39688
G1 X54.066 Y30.131 E14.40925
G1 X54.256 Y30.76 E14.42161
G1 X54.367 Y31.407 E14.43396
G1 X54.4 Y32 E14.44513
G1 X54.4 Y52 E14.82134
G1 X54.36 Y52.656 E14.8337
G1 X54.241 Y53.302 E14.84606
G1 X54.044 Y53.929 E14.85842
G1 X53.772 Y54.527 E14.87078
G1 X53.43 Y55.088 E14.88314
G1 X53.022 Y55.603 E14.8955
G1 X52.555 Y56.065 E14.90785
G1 X52.035 Y56.466 E14.92021
G1 X51.471 Y56.802 E14.93256
G1 X50.869 Y57.066 E14.94492
G1 X50.24 Y57.256 E14.95728
G1 X49.593 Y57.367 E14.96963
G1 X49 Y57.4 E14.9808
G1 X29 Y57.4 E15.35701
G1 X28.344 Y57.36 E15.36937
G1 X27.698 Y57.241 E15.38173
G1 X27.071 Y57.044 E15.39409
G1 X26.473 Y56.772 E15.40645
G1 X25.912 Y56.43 E15.41881
G1 X25.397 Y56.022 E15.43117
G1 X24.935 Y55.555 E15.44353
G1 X24.534 Y55.035 E15.45588
G1 X24.198 Y54.471 E15.46823
G1 X23.934 Y53.869 E15.48059
G1 X23.744 Y53.24 E15.49295
G1 X23.633 Y52.593 E15.5053
G1 X23.6 Y52 E15.51647
G1 X23.6 Y32 E15.89268
G1 X23.64 Y31.344 E15.90505
G1 X23.759 Y30.698 E15.9174
G1 X23.956 Y30.071 E15.92976
G1 X24.228 Y29.473 E15.94212
G1 X24.57 Y28.912 E15.95448
G1 X24.978 Y28.397 E15.96684
G1 X25.445 Y27.935 E15.9792
G1 X25.965 Y27.534 E15.99155
G0 F3600 X26.35 Y27.76
G1 F1800 X26.906 Y27.46 E16.00343
G1 X27.495 Y27.232 E16.01531
G1 X28.109 Y27.08 E16.02721
G1 X29 Y27 E16.04404
G1 X49 Y27 E16.42025
G1 X49.631 Y27.04 E16.43214
G1 X50.252 Y27.159 E16.44404
G1 X50.852 Y27.356 E16.45592
G1 X51.424 Y27.627 E16.46782
G1 X51.956 Y27.967 E16.4797
G1 X52.441 Y28.373 E16.4916
G1 X52.871 Y28.836 E16.50348
G1 X53.24 Y29.35 E16.51539
G1 X53.54 Y29.906 E16.52727
G1 X53.768 Y30.495 E16.53915
G1 X53.92 Y31.109 E16.55105
G1 X54 Y32 E16.56788
G1 X54 Y52 E16.94409
G1 X53.96 Y52.631 E16.95598
G1 X53.841 Y53.252 E16.96787
G1 X53.644 Y53.852 E16.97975
G1 X53.373 Y54.424 E16.99166
G1 X53.033 Y54.956 E17.00354
G1 X52.627 Y55.441 E17.01543
G1 X52.164 Y55.871 E17.02732
G1 X51.65 Y56.24 E17.03922
G1 X51.094 Y56.54 E17.05111
G1 X50.505 Y56.768 E17.06299
G1 X49.891 Y56.92 E17.07489
G1 X49 Y57 E17.09171
G1 X29 Y57 E17.46792
G1 X28.369 Y56.96 E17.47982
G1 X27.748 Y56.841 E17.49171
G1 X27.148 Y56.644 E17.50359
G1 X26.576 Y56.373 E17.5155
G1 X26.044 Y56.033 E17.52737
G1 X25.559 Y55.627 E17.53927
G1 X25.129 Y55.164 E17.55116
G1 X24.76 Y54.65 E17.56306
G1 X24.46 Y54.094 E17.57494
G1 X24.232 Y53.505 E17.58682
G1 X24.08 Y52.891 E17.59872
G1 X24 Y52 E17.61555
G1 X24 Y32 E17.99176
G1 X24.04 Y31.369 E18.00365
G1 X24.159 Y30.748 E18.01555
G1 X24.356 Y30.148 E18.02743
G1 X24.627 Y29.576 E18.03933
G1 X24.967 Y29.044 E18.05121
G1 X25.373 Y28.559 E18.06311
G1 X25.836 Y28.129 E18.07499
G1 X26.35 Y27.76 E18.08689
G0 F3600 X26.732 Y27.998
G1 F1800 X27.278 Y27.734 E18.0983
G1 X27.854 Y27.545 E18.10971
G1 X28.45 Y27.433 E18.12111
G1 X29 Y27.4 E18.13148
G1 X49 Y27.4 E18.50769
G1 X49.605 Y27.44 E18.51909
G1 X50.199 Y27.559 E18.53049
G1 X50.773 Y27.755 E18.5419
G1 X51.316 Y28.026 E18.55331
G1 X51.819 Y28.365 E18.56472
G1 X52.272 Y28.767 E18.57612
G1 X52.669 Y29.225 E18.58752
G1 X53.002 Y29.732 E18.59893
G1 X53.266 Y30.278 E18.61034
G1 X53.455 Y30.854 E18.62174
G1 X53.567 Y31.45 E18.63315
G1 X53.6 Y32 E18.64351
G1 X53.6 Y52 E19.01972
G1 X53.56 Y52.605 E19.03113
G1 X53.441 Y53.199 E19.04252
G1 X53.245 Y53.773 E19.05393
G1 X52.974 Y54.316 E19.06535
G1 X52.635 Y54.819 E19.07676
G1 X52.233 Y55.272 E19.08815
G1 X51.775 Y55.669 E19.09955
G1 X51.268 Y56.002 E19.11096
G1 X50.722 Y56.266 E19.12237
G1 X50.146 Y56.455 E19.13377
G1 X49.55 Y56.567 E19.14518
G1 X49 Y56.6 E19.15555
G1 X29 Y56.6 E19.53176
G1 X28.395 Y56.56 E19.54316
G1 X27.801 Y56.441 E19.55456
G1 X27.227 Y56.245 E19.56597
G1 X26.684 Y55.974 E19.57738
G1 X26.181 Y55.635 E19.58879
G1 X25.728 Y55.233 E19.60018
G1 X25.331 Y54.775 E19.61159
G1 X24.998 Y54.268 E19.623
G1 X24.734 Y53.722 E19.6344
G1 X24.545 Y53.146 E19.64581
G1 X24.433 Y52.55 E19.65722
G1 X24.4 Y52 E19.66758
G1 X24.4 Y32 E20.04379
G1 X24.44 Y31.395 E20.0552
G1 X24.559 Y30.801 E20.06659
G1 X24.755 Y30.227 E20.078
G1 X25.026 Y29.684 E20.08942
G1 X25.365 Y29.181 E20.10083
G1 X25.767 Y28.728 E20.11222
G1 X26.225 Y28.331 E20.12362
G1 X26.732 Y27.998 E20.13503
G0 F3600 X27.111 Y28.249
G1 F1800 X27.645 Y28.024 E20.14593
G1 X28.205 Y27.876 E20.15683
G1 X29 Y27.8 E20.17185
G1 X49 Y27.8 E20.54806
G1 X49.578 Y27.84 E20.55896
G1 X50.145 Y27.959 E20.56986
G1 X50.69 Y28.155 E20.58075
G1 X51.203 Y28.424 E20.59165
G1 X51.674 Y28.761 E20.60254
G1 X52.094 Y29.16 E20.61344
G1 X52.456 Y29.613 E20.62435
G1 X52.751 Y30.111 E20.63523
G1 X52.976 Y30.645 E20.64613
G1 X53.124 Y31.205 E20.65703
G1 X53.2 Y32 E20.67205
G1 X53.2 Y52 E21.04826
G1 X53.16 Y52.578 E21.05916
G1 X53.041 Y53.145 E21.07006
G1 X52.845 Y53.69 E21.08095
G1 X52.576 Y54.203 E21.09185
G1 X52.239 Y54.674 E21.10274
G1 X51.84 Y55.094 E21.11364
G1 X51.387 Y55.456 E21.12455
G1 X50.889 Y55.751 E21.13544
G1 X50.355 Y55.976 E21.14634
G1 X49.795 Y56.124 E21.15723
G1 X49 Y56.2 E21.17225
G1 X29 Y56.2 E21.54847
G1 X28.422 Y56.16 E21.55936
G1 X27.855 Y56.041 E21.57026
G1 X27.31 Y55.845 E21.58116
